( Generated by Carbide Copper )
( ESP32_CNC_SHIELD_30PIN)
( Material Size )
( X= 75.000, Y= 90.000, Z= 1.400 )
()
G17
G21
G54
G90
M05
(  )
T502 M06
( Contour V30ยบ)
G0  Z3
M03 S10000

G00 X-1.443 Y-0.542
G0  Z0
G01 F50 Z-0.0700
G1  F300 X75.443
Y86.872
X-1.443
Y-0.542
M05
G0  Z3
G00 X0 Y0
( )
T502 M6
( Contour V30ยบ)
M03 S10000
G0  Z3
G0  X0.811 Y84.776
G0  Z0
G01 F50 Z-0.070
G01 F400 X0.775 Y84.769
X0.741 Y84.754
X0.711 Y84.732
X0.687 Y84.704
X0.668 Y84.672
X0.657 Y84.637
X0.653 Y84.603
X0.653 Y0.827
X0.657 Y0.793
X0.668 Y0.758
X0.687 Y0.726
X0.711 Y0.698
X0.741 Y0.676
X0.775 Y0.661
X0.811 Y0.654
X73.189 Y0.654
X73.225 Y0.661
X73.259 Y0.676
X73.289 Y0.698
X73.313 Y0.726
X73.332 Y0.758
X73.343 Y0.793
X73.347 Y0.827
X73.347 Y84.603
X73.343 Y84.637
X73.332 Y84.672
X73.313 Y84.704
X73.289 Y84.732
X73.259 Y84.754
X73.225 Y84.769
X73.189 Y84.776
X0.811 Y84.776
G0  Z3.000
G0  X30.650 Y83.415
G0  Z0
G01 F50 Z-0.070
G01 F400 X30.936 Y83.387
X31.211 Y83.304
X31.464 Y83.168
X31.687 Y82.986
X31.869 Y82.764
X32.004 Y82.510
X32.087 Y82.236
X32.108 Y82.027
X32.108 Y81.608
X32.112 Y81.574
X32.123 Y81.539
X32.142 Y81.507
X32.164 Y81.482
X32.655 Y80.991
X32.697 Y80.956
X32.834 Y80.788
X32.935 Y80.600
X32.998 Y80.394
X33.019 Y80.180
X33.013 Y80.120
X33.013 Y79.167
X33.017 Y79.133
X33.028 Y79.098
X33.046 Y79.067
X33.139 Y78.954
X33.274 Y78.700
X33.358 Y78.426
X33.378 Y78.217
X33.378 Y77.063
X33.358 Y76.854
X33.274 Y76.580
X33.139 Y76.326
X32.957 Y76.104
X32.734 Y75.922
X32.481 Y75.786
X32.207 Y75.703
X31.920 Y75.675
X31.634 Y75.703
X31.359 Y75.786
X31.106 Y75.922
X30.883 Y76.105
X30.702 Y76.326
X30.566 Y76.580
X30.483 Y76.854
X30.462 Y77.063
X30.462 Y78.217
X30.483 Y78.426
X30.566 Y78.700
X30.701 Y78.954
X30.794 Y79.067
X30.812 Y79.098
X30.823 Y79.133
X30.827 Y79.167
X30.827 Y79.310
X30.823 Y79.344
X30.812 Y79.379
X30.793 Y79.411
X30.769 Y79.439
X30.739 Y79.461
X30.705 Y79.476
X30.671 Y79.483
X30.364 Y79.513
X30.089 Y79.596
X29.836 Y79.732
X29.613 Y79.915
X29.431 Y80.136
X29.296 Y80.390
X29.213 Y80.664
X29.192 Y80.873
X29.192 Y82.027
X29.213 Y82.236
X29.296 Y82.510
X29.431 Y82.764
X29.613 Y82.986
X29.836 Y83.168
X30.089 Y83.304
X30.364 Y83.387
X30.650 Y83.415
G0  Z3.000
G0  X40.810 Y83.415
G0  Z0
G01 F50 Z-0.070
G01 F400 X41.096 Y83.387
X41.371 Y83.304
X41.624 Y83.168
X41.847 Y82.986
X42.029 Y82.764
X42.164 Y82.510
X42.248 Y82.236
X42.268 Y82.027
X42.268 Y81.608
X42.272 Y81.574
X42.283 Y81.539
X42.302 Y81.507
X42.324 Y81.482
X42.815 Y80.991
X42.857 Y80.957
X42.994 Y80.789
X43.095 Y80.600
X43.158 Y80.394
X43.179 Y80.180
X43.173 Y80.120
X43.173 Y79.167
X43.177 Y79.133
X43.188 Y79.098
X43.206 Y79.067
X43.299 Y78.954
X43.434 Y78.700
X43.518 Y78.426
X43.538 Y78.217
X43.538 Y77.063
X43.518 Y76.854
X43.434 Y76.580
X43.299 Y76.326
X43.116 Y76.104
X42.894 Y75.922
X42.641 Y75.786
X42.367 Y75.703
X42.080 Y75.675
X41.794 Y75.703
X41.519 Y75.786
X41.266 Y75.922
X41.043 Y76.105
X40.861 Y76.326
X40.726 Y76.580
X40.643 Y76.854
X40.622 Y77.063
X40.622 Y78.217
X40.643 Y78.426
X40.726 Y78.700
X40.861 Y78.954
X40.954 Y79.067
X40.972 Y79.098
X40.983 Y79.133
X40.987 Y79.167
X40.987 Y79.310
X40.983 Y79.344
X40.972 Y79.379
X40.953 Y79.411
X40.929 Y79.439
X40.899 Y79.461
X40.865 Y79.476
X40.831 Y79.483
X40.524 Y79.513
X40.249 Y79.596
X39.996 Y79.732
X39.773 Y79.915
X39.592 Y80.136
X39.456 Y80.390
X39.373 Y80.664
X39.352 Y80.873
X39.352 Y82.027
X39.373 Y82.236
X39.456 Y82.510
X39.592 Y82.764
X39.773 Y82.986
X39.996 Y83.168
X40.249 Y83.304
X40.524 Y83.387
X40.810 Y83.415
G0  Z3.000
G0  X57.606 Y83.412
G0  Z0
G01 F50 Z-0.070
G01 F400 X59.574 Y83.412
X59.680 Y83.401
X59.767 Y83.375
X59.846 Y83.333
X59.916 Y83.275
X59.973 Y83.206
X60.016 Y83.125
X60.042 Y83.040
X60.051 Y82.947
X60.051 Y79.953
X60.042 Y79.861
X60.016 Y79.774
X59.973 Y79.695
X59.916 Y79.625
X59.846 Y79.568
X59.770 Y79.527
X59.741 Y79.506
X59.717 Y79.478
X59.698 Y79.446
X59.687 Y79.411
X59.683 Y79.377
X59.683 Y73.890
X59.688 Y73.823
X59.683 Y73.773
X59.668 Y73.616
X59.605 Y73.410
X59.504 Y73.220
X59.367 Y73.053
X59.325 Y73.019
X54.776 Y68.470
X54.754 Y68.446
X54.735 Y68.413
X54.724 Y68.378
X54.720 Y68.341
X54.724 Y68.305
X54.735 Y68.269
X54.754 Y68.237
X54.779 Y68.210
X54.809 Y68.188
X54.843 Y68.173
X54.877 Y68.166
X55.066 Y68.147
X55.341 Y68.064
X55.594 Y67.928
X55.817 Y67.746
X55.909 Y67.633
X55.931 Y67.608
X55.961 Y67.586
X55.995 Y67.571
X56.032 Y67.564
X56.069 Y67.564
X56.105 Y67.571
X56.139 Y67.586
X56.169 Y67.608
X56.191 Y67.633
X56.283 Y67.746
X56.506 Y67.928
X56.759 Y68.064
X57.034 Y68.147
X57.320 Y68.175
X57.606 Y68.147
X57.881 Y68.064
X58.134 Y67.928
X58.357 Y67.746
X58.449 Y67.633
X58.471 Y67.608
X58.501 Y67.586
X58.535 Y67.571
X58.572 Y67.564
X58.608 Y67.564
X58.645 Y67.571
X58.679 Y67.586
X58.709 Y67.608
X58.733 Y67.636
X58.752 Y67.668
X58.763 Y67.703
X58.767 Y67.737
X58.767 Y69.960
X58.761 Y70.020
X58.767 Y70.077
X58.787 Y70.251
X58.813 Y70.335
X58.845 Y70.440
X58.947 Y70.630
X59.083 Y70.796
X59.125 Y70.831
X60.383 Y72.089
X60.405 Y72.114
X60.424 Y72.146
X60.435 Y72.181
X60.439 Y72.215
X60.439 Y73.557
X60.448 Y73.650
X60.474 Y73.735
X60.517 Y73.815
X60.574 Y73.885
X60.644 Y73.943
X60.724 Y73.985
X60.810 Y74.011
X60.916 Y74.022
X63.884 Y74.022
X63.990 Y74.011
X64.076 Y73.985
X64.156 Y73.943
X64.226 Y73.885
X64.283 Y73.815
X64.326 Y73.735
X64.352 Y73.650
X64.361 Y73.557
X64.361 Y71.563
X64.352 Y71.471
X64.326 Y71.384
X64.283 Y71.304
X64.226 Y71.235
X64.156 Y71.178
X64.077 Y71.135
X63.990 Y71.109
X63.884 Y71.098
X62.539 Y71.098
X62.503 Y71.091
X62.469 Y71.076
X62.440 Y71.054
X61.009 Y69.623
X60.987 Y69.598
X60.968 Y69.566
X60.957 Y69.531
X60.953 Y69.497
X60.953 Y67.737
X60.957 Y67.703
X60.968 Y67.668
X60.987 Y67.636
X61.011 Y67.608
X61.041 Y67.586
X61.075 Y67.571
X61.111 Y67.564
X61.149 Y67.564
X61.185 Y67.571
X61.219 Y67.586
X61.249 Y67.608
X61.271 Y67.633
X61.363 Y67.746
X61.586 Y67.928
X61.839 Y68.064
X62.114 Y68.147
X62.400 Y68.175
X62.686 Y68.147
X62.961 Y68.064
X63.214 Y67.928
X63.437 Y67.746
X63.619 Y67.524
X63.754 Y67.270
X63.838 Y66.996
X63.858 Y66.787
X63.858 Y65.633
X63.838 Y65.424
X63.754 Y65.150
X63.619 Y64.896
X63.526 Y64.783
X63.508 Y64.752
X63.497 Y64.717
X63.493 Y64.683
X63.493 Y63.378
X63.494 Y54.072
X63.499 Y54.023
X63.493 Y53.965
X63.485 Y53.884
X63.474 Y53.796
X63.415 Y53.603
X63.314 Y53.413
X63.177 Y53.246
X63.135 Y53.212
X58.170 Y48.247
X58.151 Y48.226
X58.127 Y48.196
X57.960 Y48.059
X57.800 Y47.974
X57.770 Y47.957
X57.565 Y47.895
X57.342 Y47.875
X57.303 Y47.879
X55.536 Y47.879
X55.499 Y47.871
X55.466 Y47.856
X55.436 Y47.834
X55.411 Y47.806
X55.392 Y47.774
X55.381 Y47.739
X55.377 Y47.702
X55.381 Y47.666
X55.448 Y47.446
X55.476 Y47.160
X55.448 Y46.874
X55.364 Y46.600
X55.229 Y46.346
X55.173 Y46.279
X55.155 Y46.248
X55.144 Y46.213
X55.140 Y46.176
X55.144 Y46.139
X55.155 Y46.104
X55.174 Y46.072
X55.199 Y46.044
X55.227 Y46.023
X55.266 Y46.003
X55.336 Y45.945
X55.393 Y45.875
X55.436 Y45.795
X55.462 Y45.710
X55.471 Y45.617
X55.471 Y43.623
X55.462 Y43.531
X55.436 Y43.444
X55.393 Y43.364
X55.336 Y43.295
X55.266 Y43.238
X55.187 Y43.195
X55.100 Y43.169
X54.994 Y43.158
X52.026 Y43.158
X51.920 Y43.169
X51.834 Y43.195
X51.754 Y43.238
X51.684 Y43.295
X51.627 Y43.364
X51.584 Y43.445
X51.558 Y43.531
X51.549 Y43.623
X51.549 Y45.617
X51.558 Y45.710
X51.584 Y45.795
X51.596 Y45.819
X51.608 Y45.853
X51.612 Y45.890
X51.608 Y45.927
X51.596 Y45.962
X51.578 Y45.994
X51.553 Y46.022
X51.523 Y46.044
X51.489 Y46.059
X51.453 Y46.066
X50.958 Y46.066
X50.921 Y46.059
X50.888 Y46.044
X50.858 Y46.022
X50.833 Y45.994
X50.814 Y45.962
X50.803 Y45.926
X50.799 Y45.895
X50.793 Y45.830
X50.793 Y42.337
X50.797 Y42.303
X50.808 Y42.268
X50.827 Y42.236
X50.851 Y42.208
X50.881 Y42.186
X50.915 Y42.171
X50.952 Y42.163
X50.989 Y42.163
X51.025 Y42.171
X51.059 Y42.186
X51.089 Y42.208
X51.111 Y42.233
X51.203 Y42.346
X51.426 Y42.528
X51.679 Y42.664
X51.954 Y42.747
X52.240 Y42.775
X52.526 Y42.747
X52.801 Y42.664
X53.054 Y42.528
X53.277 Y42.346
X53.369 Y42.233
X53.391 Y42.208
X53.421 Y42.186
X53.455 Y42.171
X53.492 Y42.163
X53.529 Y42.163
X53.565 Y42.171
X53.599 Y42.186
X53.629 Y42.208
X53.651 Y42.233
X53.743 Y42.346
X53.966 Y42.528
X54.219 Y42.664
X54.494 Y42.747
X54.780 Y42.775
X55.066 Y42.747
X55.341 Y42.664
X55.594 Y42.528
X55.817 Y42.346
X55.909 Y42.233
X55.931 Y42.208
X55.961 Y42.186
X55.995 Y42.171
X56.032 Y42.163
X56.069 Y42.163
X56.105 Y42.171
X56.139 Y42.186
X56.169 Y42.208
X56.191 Y42.233
X56.283 Y42.346
X56.506 Y42.528
X56.759 Y42.664
X57.034 Y42.747
X57.320 Y42.775
X57.606 Y42.747
X57.881 Y42.664
X58.134 Y42.528
X58.357 Y42.346
X58.449 Y42.233
X58.471 Y42.208
X58.501 Y42.186
X58.535 Y42.171
X58.572 Y42.163
X58.608 Y42.163
X58.645 Y42.171
X58.679 Y42.186
X58.709 Y42.208
X58.731 Y42.233
X58.823 Y42.346
X59.046 Y42.528
X59.299 Y42.664
X59.574 Y42.747
X59.860 Y42.775
X60.146 Y42.747
X60.421 Y42.664
X60.674 Y42.528
X60.897 Y42.346
X60.989 Y42.233
X61.011 Y42.208
X61.041 Y42.186
X61.075 Y42.171
X61.111 Y42.163
X61.149 Y42.163
X61.185 Y42.171
X61.219 Y42.186
X61.249 Y42.208
X61.271 Y42.233
X61.363 Y42.346
X61.586 Y42.528
X61.839 Y42.664
X62.114 Y42.747
X62.400 Y42.775
X62.686 Y42.747
X62.961 Y42.664
X63.214 Y42.528
X63.437 Y42.346
X63.619 Y42.124
X63.754 Y41.870
X63.838 Y41.596
X63.858 Y41.387
X63.858 Y40.233
X63.838 Y40.024
X63.754 Y39.750
X63.619 Y39.496
X63.437 Y39.274
X63.214 Y39.092
X62.961 Y38.956
X62.686 Y38.873
X62.400 Y38.845
X62.114 Y38.873
X61.839 Y38.956
X61.586 Y39.092
X61.363 Y39.275
X61.271 Y39.388
X61.249 Y39.412
X61.219 Y39.434
X61.185 Y39.449
X61.149 Y39.456
X61.111 Y39.456
X61.075 Y39.449
X61.041 Y39.434
X61.011 Y39.412
X60.989 Y39.388
X60.897 Y39.275
X60.674 Y39.092
X60.421 Y38.956
X60.147 Y38.873
X59.860 Y38.845
X59.574 Y38.873
X59.299 Y38.956
X59.046 Y39.092
X58.823 Y39.275
X58.731 Y39.388
X58.709 Y39.412
X58.679 Y39.434
X58.645 Y39.449
X58.608 Y39.456
X58.572 Y39.456
X58.535 Y39.449
X58.501 Y39.434
X58.471 Y39.412
X58.449 Y39.388
X58.357 Y39.274
X58.134 Y39.092
X57.881 Y38.956
X57.606 Y38.873
X57.320 Y38.845
X57.034 Y38.873
X56.759 Y38.956
X56.506 Y39.092
X56.283 Y39.275
X56.191 Y39.388
X56.169 Y39.412
X56.139 Y39.434
X56.105 Y39.449
X56.069 Y39.456
X56.032 Y39.456
X55.995 Y39.449
X55.961 Y39.434
X55.931 Y39.412
X55.909 Y39.388
X55.817 Y39.275
X55.594 Y39.092
X55.341 Y38.956
X55.067 Y38.873
X54.780 Y38.845
X54.494 Y38.873
X54.219 Y38.956
X53.966 Y39.092
X53.743 Y39.275
X53.651 Y39.388
X53.629 Y39.412
X53.599 Y39.434
X53.565 Y39.449
X53.529 Y39.456
X53.492 Y39.456
X53.455 Y39.449
X53.421 Y39.434
X53.391 Y39.412
X53.369 Y39.388
X53.277 Y39.274
X53.054 Y39.092
X52.801 Y38.956
X52.526 Y38.873
X52.240 Y38.845
X51.954 Y38.873
X51.679 Y38.956
X51.426 Y39.092
X51.203 Y39.275
X51.111 Y39.388
X51.089 Y39.412
X51.059 Y39.434
X51.025 Y39.449
X50.989 Y39.456
X50.952 Y39.456
X50.915 Y39.449
X50.881 Y39.434
X50.851 Y39.412
X50.829 Y39.388
X50.737 Y39.275
X50.514 Y39.092
X50.261 Y38.956
X49.987 Y38.873
X49.700 Y38.845
X49.414 Y38.873
X49.139 Y38.956
X48.886 Y39.092
X48.663 Y39.275
X48.571 Y39.388
X48.549 Y39.412
X48.519 Y39.434
X48.485 Y39.449
X48.449 Y39.456
X48.412 Y39.456
X48.375 Y39.449
X48.341 Y39.434
X48.311 Y39.412
X48.289 Y39.388
X48.197 Y39.274
X47.974 Y39.092
X47.721 Y38.956
X47.446 Y38.873
X47.160 Y38.845
X46.874 Y38.873
X46.599 Y38.956
X46.346 Y39.092
X46.123 Y39.275
X46.031 Y39.388
X46.009 Y39.412
X45.979 Y39.434
X45.945 Y39.449
X45.909 Y39.456
X45.872 Y39.456
X45.835 Y39.449
X45.801 Y39.434
X45.771 Y39.412
X45.749 Y39.388
X45.657 Y39.275
X45.434 Y39.092
X45.181 Y38.956
X44.907 Y38.873
X44.620 Y38.845
X44.334 Y38.873
X44.059 Y38.956
X43.973 Y39.003
X43.943 Y39.016
X43.906 Y39.024
X43.869 Y39.024
X43.833 Y39.016
X43.799 Y39.001
X43.769 Y38.979
X43.744 Y38.952
X43.726 Y38.920
X43.714 Y38.884
X43.710 Y38.848
X43.714 Y38.811
X43.726 Y38.775
X43.742 Y38.747
X43.815 Y38.638
X43.963 Y38.281
X44.038 Y37.903
X44.038 Y37.517
X43.963 Y37.139
X43.815 Y36.782
X43.604 Y36.466
X43.587 Y36.437
X43.576 Y36.402
X43.572 Y36.365
X43.576 Y36.328
X43.587 Y36.293
X43.606 Y36.261
X43.630 Y36.233
X43.660 Y36.212
X43.694 Y36.196
X43.730 Y36.189
X64.244 Y36.189
X64.280 Y36.193
X64.349 Y36.189
X64.397 Y36.184
X64.513 Y36.174
X64.606 Y36.146
X64.720 Y36.113
X64.804 Y36.068
X64.911 Y36.012
X64.983 Y35.953
X65.078 Y35.876
X65.136 Y35.806
X65.176 Y35.757
X65.176 Y35.757
X65.219 Y35.705
X65.229 Y35.686
X65.244 Y35.660
X65.809 Y34.854
X65.854 Y34.800
X65.893 Y34.726
X65.955 Y34.611
X65.979 Y34.531
X65.987 Y34.505
X65.988 Y34.505
X66.018 Y34.404
X66.026 Y34.324
X66.029 Y34.297
X66.038 Y34.216
X66.033 Y34.144
X66.033 Y33.556
X66.037 Y33.521
X66.048 Y33.486
X66.067 Y33.454
X66.091 Y33.426
X66.121 Y33.404
X66.155 Y33.389
X66.192 Y33.382
X66.424 Y33.382
X66.530 Y33.371
X66.616 Y33.345
X66.648 Y33.328
X66.679 Y33.314
X66.715 Y33.307
X66.752 Y33.307
X66.788 Y33.314
X66.822 Y33.330
X66.851 Y33.351
X66.942 Y33.441
X67.263 Y33.656
X67.620 Y33.803
X67.998 Y33.879
X68.382 Y33.879
X68.761 Y33.803
X69.117 Y33.656
X69.438 Y33.441
X69.711 Y33.168
X69.925 Y32.848
X70.073 Y32.491
X70.148 Y32.113
X70.148 Y31.727
X70.073 Y31.349
X69.925 Y30.992
X69.726 Y30.695
X69.710 Y30.666
X69.698 Y30.631
X69.694 Y30.594
X69.698 Y30.557
X69.710 Y30.522
X69.726 Y30.493
X69.850 Y30.308
X69.998 Y29.951
X70.073 Y29.573
X70.073 Y29.187
X69.998 Y28.809
X69.850 Y28.453
X69.636 Y28.132
X69.363 Y27.859
X69.042 Y27.644
X68.686 Y27.497
X68.307 Y27.421
X67.923 Y27.421
X67.544 Y27.497
X67.188 Y27.644
X66.949 Y27.804
X66.916 Y27.819
X66.879 Y27.827
X66.842 Y27.827
X66.806 Y27.819
X66.772 Y27.804
X66.742 Y27.782
X66.717 Y27.755
X66.699 Y27.722
X66.687 Y27.687
X66.684 Y27.650
X66.687 Y27.613
X66.699 Y27.578
X66.794 Y27.400
X66.877 Y27.126
X66.906 Y26.840
X66.877 Y26.554
X66.794 Y26.280
X66.659 Y26.026
X66.477 Y25.804
X66.350 Y25.701
X66.326 Y25.674
X66.308 Y25.642
X66.296 Y25.607
X66.293 Y25.570
X66.296 Y25.533
X66.308 Y25.498
X66.326 Y25.466
X66.350 Y25.439
X66.477 Y25.335
X66.659 Y25.114
X66.794 Y24.860
X66.877 Y24.586
X66.906 Y24.300
X66.877 Y24.014
X66.794 Y23.740
X66.659 Y23.486
X66.476 Y23.264
X66.350 Y23.161
X66.326 Y23.134
X66.308 Y23.102
X66.296 Y23.067
X66.293 Y23.030
X66.296 Y22.993
X66.308 Y22.958
X66.326 Y22.926
X66.350 Y22.899
X66.477 Y22.796
X66.659 Y22.574
X66.794 Y22.320
X66.877 Y22.046
X66.906 Y21.760
X66.877 Y21.474
X66.794 Y21.200
X66.659 Y20.946
X66.477 Y20.724
X66.350 Y20.621
X66.326 Y20.594
X66.308 Y20.562
X66.296 Y20.527
X66.293 Y20.490
X66.296 Y20.453
X66.308 Y20.418
X66.326 Y20.386
X66.350 Y20.359
X66.477 Y20.256
X66.659 Y20.034
X66.794 Y19.780
X66.877 Y19.506
X66.906 Y19.220
X66.877 Y18.934
X66.794 Y18.660
X66.699 Y18.481
X66.687 Y18.447
X66.684 Y18.410
X66.687 Y18.373
X66.699 Y18.338
X66.717 Y18.306
X66.742 Y18.278
X66.772 Y18.256
X66.806 Y18.241
X66.842 Y18.233
X66.879 Y18.233
X66.916 Y18.241
X66.949 Y18.256
X67.188 Y18.416
X67.544 Y18.564
X67.923 Y18.639
X68.307 Y18.639
X68.686 Y18.564
X69.042 Y18.416
X69.363 Y18.201
X69.636 Y17.928
X69.850 Y17.608
X69.998 Y17.251
X70.073 Y16.873
X70.073 Y16.487
X69.998 Y16.109
X69.850 Y15.753
X69.636 Y15.432
X69.363 Y15.159
X69.042 Y14.944
X68.686 Y14.796
X68.307 Y14.721
X67.923 Y14.721
X67.544 Y14.796
X67.188 Y14.944
X66.949 Y15.104
X66.916 Y15.119
X66.879 Y15.127
X66.842 Y15.127
X66.806 Y15.119
X66.772 Y15.104
X66.742 Y15.082
X66.717 Y15.055
X66.699 Y15.022
X66.687 Y14.987
X66.684 Y14.950
X66.687 Y14.913
X66.699 Y14.879
X66.794 Y14.700
X66.877 Y14.426
X66.906 Y14.140
X66.877 Y13.854
X66.794 Y13.580
X66.659 Y13.327
X66.467 Y13.095
X66.447 Y13.073
X66.428 Y13.041
X66.417 Y13.006
X66.413 Y12.969
X66.417 Y12.932
X66.429 Y12.895
X66.456 Y12.856
X66.675 Y12.527
X66.823 Y12.171
X66.898 Y11.793
X66.898 Y11.407
X66.823 Y11.029
X66.675 Y10.673
X66.461 Y10.352
X66.188 Y10.079
X65.867 Y9.864
X65.511 Y9.716
X65.132 Y9.641
X64.748 Y9.641
X64.370 Y9.716
X64.092 Y9.831
X64.057 Y9.839
X64.020 Y9.839
X63.983 Y9.831
X63.949 Y9.816
X63.920 Y9.794
X63.895 Y9.767
X63.876 Y9.735
X63.865 Y9.700
X63.861 Y9.665
X63.861 Y7.563
X63.852 Y7.471
X63.826 Y7.385
X63.783 Y7.304
X63.726 Y7.235
X63.656 Y7.178
X63.576 Y7.135
X63.490 Y7.109
X63.384 Y7.098
X61.416 Y7.098
X61.310 Y7.109
X61.224 Y7.135
X61.144 Y7.178
X61.074 Y7.235
X61.017 Y7.305
X61.004 Y7.329
X60.988 Y7.357
X60.963 Y7.384
X60.933 Y7.406
X60.899 Y7.421
X60.863 Y7.429
X60.826 Y7.429
X60.790 Y7.421
X60.756 Y7.406
X60.729 Y7.387
X60.675 Y7.342
X60.421 Y7.206
X60.146 Y7.123
X59.860 Y7.095
X59.574 Y7.123
X59.299 Y7.206
X59.046 Y7.342
X58.823 Y7.525
X58.731 Y7.638
X58.709 Y7.662
X58.679 Y7.684
X58.645 Y7.699
X58.608 Y7.707
X58.572 Y7.707
X58.535 Y7.699
X58.501 Y7.684
X58.471 Y7.662
X58.449 Y7.638
X58.357 Y7.525
X58.134 Y7.342
X57.881 Y7.206
X57.607 Y7.123
X57.320 Y7.095
X57.034 Y7.123
X56.759 Y7.206
X56.506 Y7.342
X56.283 Y7.525
X56.191 Y7.638
X56.169 Y7.662
X56.139 Y7.684
X56.105 Y7.699
X56.069 Y7.707
X56.032 Y7.707
X55.995 Y7.699
X55.961 Y7.684
X55.931 Y7.662
X55.909 Y7.638
X55.817 Y7.524
X55.594 Y7.342
X55.341 Y7.206
X55.066 Y7.123
X54.780 Y7.095
X54.494 Y7.123
X54.219 Y7.206
X53.966 Y7.342
X53.743 Y7.525
X53.562 Y7.746
X53.426 Y8.000
X53.343 Y8.274
X53.322 Y8.483
X53.322 Y9.637
X53.343 Y9.846
X53.426 Y10.120
X53.561 Y10.373
X53.654 Y10.487
X53.672 Y10.518
X53.683 Y10.553
X53.687 Y10.587
X53.687 Y13.699
X53.739 Y13.815
X53.785 Y14.030
X53.785 Y14.250
X53.739 Y14.465
X53.687 Y14.581
X53.687 Y15.240
X53.683 Y15.275
X53.672 Y15.310
X53.653 Y15.342
X53.629 Y15.369
X53.599 Y15.391
X53.565 Y15.406
X53.529 Y15.414
X53.492 Y15.414
X53.455 Y15.406
X53.425 Y15.393
X53.301 Y15.326
X53.027 Y15.243
X52.804 Y15.221
X51.672 Y15.221
X51.636 Y15.214
X51.601 Y15.198
X51.571 Y15.172
X51.522 Y15.167
X51.313 Y15.100
X51.123 Y14.990
X50.960 Y14.843
X50.830 Y14.665
X50.741 Y14.465
X50.696 Y14.250
X50.696 Y14.030
X50.741 Y13.815
X50.829 Y13.618
X50.866 Y13.551
X50.725 Y13.213
X50.511 Y12.892
X50.338 Y12.719
X50.316 Y12.694
X50.297 Y12.662
X50.286 Y12.627
X50.282 Y12.590
X50.286 Y12.553
X50.297 Y12.518
X50.316 Y12.486
X50.338 Y12.461
X50.586 Y12.213
X50.800 Y11.893
X50.948 Y11.536
X51.023 Y11.158
X51.023 Y10.772
X50.948 Y10.394
X50.800 Y10.037
X50.586 Y9.717
X50.313 Y9.444
X49.992 Y9.229
X49.636 Y9.082
X49.257 Y9.006
X48.873 Y9.006
X48.495 Y9.082
X48.138 Y9.229
X47.817 Y9.444
X47.544 Y9.717
X47.330 Y10.037
X47.182 Y10.394
X47.107 Y10.772
X47.107 Y11.158
X47.182 Y11.536
X47.330 Y11.893
X47.544 Y12.213
X47.717 Y12.386
X47.739 Y12.411
X47.758 Y12.443
X47.769 Y12.478
X47.773 Y12.515
X47.769 Y12.552
X47.758 Y12.587
X47.739 Y12.619
X47.717 Y12.644
X47.469 Y12.892
X47.255 Y13.213
X47.107 Y13.569
X47.032 Y13.947
X47.032 Y14.333
X47.074 Y14.544
X47.078 Y14.578
X47.074 Y14.615
X47.062 Y14.650
X47.044 Y14.682
X47.019 Y14.710
X46.989 Y14.731
X46.955 Y14.746
X46.919 Y14.754
X46.882 Y14.754
X46.717 Y14.721
X46.333 Y14.721
X45.955 Y14.796
X45.598 Y14.944
X45.358 Y15.104
X45.326 Y15.119
X45.289 Y15.127
X45.252 Y15.127
X45.216 Y15.119
X45.182 Y15.104
X45.152 Y15.082
X45.127 Y15.055
X45.109 Y15.022
X45.097 Y14.987
X45.093 Y14.950
X45.097 Y14.913
X45.109 Y14.879
X45.204 Y14.700
X45.288 Y14.426
X45.316 Y14.140
X45.288 Y13.854
X45.204 Y13.580
X45.069 Y13.326
X44.887 Y13.104
X44.789 Y13.024
X44.765 Y12.998
X44.746 Y12.966
X44.735 Y12.930
X44.731 Y12.893
X44.735 Y12.857
X44.746 Y12.821
X44.765 Y12.789
X44.790 Y12.762
X44.820 Y12.740
X44.849 Y12.727
X44.912 Y12.701
X45.233 Y12.486
X45.506 Y12.213
X45.720 Y11.893
X45.868 Y11.536
X45.943 Y11.158
X45.943 Y10.772
X45.868 Y10.394
X45.720 Y10.037
X45.506 Y9.717
X45.233 Y9.444
X44.912 Y9.229
X44.556 Y9.082
X44.177 Y9.006
X43.793 Y9.006
X43.415 Y9.082
X43.058 Y9.229
X42.737 Y9.444
X42.566 Y9.615
X42.537 Y9.636
X42.503 Y9.651
X42.467 Y9.659
X42.430 Y9.659
X42.393 Y9.651
X42.359 Y9.636
X42.330 Y9.614
X42.305 Y9.587
X42.286 Y9.555
X42.275 Y9.519
X42.271 Y9.485
X42.271 Y7.563
X42.262 Y7.471
X42.236 Y7.385
X42.193 Y7.304
X42.136 Y7.235
X42.066 Y7.178
X41.986 Y7.135
X41.900 Y7.109
X41.794 Y7.098
X39.826 Y7.098
X39.720 Y7.109
X39.634 Y7.135
X39.554 Y7.178
X39.484 Y7.235
X39.427 Y7.305
X39.414 Y7.329
X39.398 Y7.357
X39.373 Y7.384
X39.343 Y7.406
X39.309 Y7.421
X39.273 Y7.429
X39.236 Y7.429
X39.200 Y7.421
X39.166 Y7.406
X39.139 Y7.387
X39.085 Y7.342
X38.831 Y7.206
X38.556 Y7.123
X38.270 Y7.095
X37.984 Y7.123
X37.709 Y7.206
X37.456 Y7.342
X37.233 Y7.525
X37.141 Y7.638
X37.119 Y7.662
X37.089 Y7.684
X37.055 Y7.699
X37.019 Y7.707
X36.982 Y7.707
X36.945 Y7.699
X36.911 Y7.684
X36.881 Y7.662
X36.859 Y7.638
X36.767 Y7.525
X36.544 Y7.342
X36.291 Y7.206
X36.017 Y7.123
X35.730 Y7.095
X35.444 Y7.123
X35.169 Y7.206
X34.916 Y7.342
X34.693 Y7.525
X34.601 Y7.638
X34.579 Y7.662
X34.549 Y7.684
X34.515 Y7.699
X34.479 Y7.707
X34.442 Y7.707
X34.405 Y7.699
X34.371 Y7.684
X34.341 Y7.662
X34.319 Y7.638
X34.227 Y7.524
X34.004 Y7.342
X33.751 Y7.206
X33.476 Y7.123
X33.190 Y7.095
X32.904 Y7.123
X32.629 Y7.206
X32.376 Y7.342
X32.153 Y7.525
X31.972 Y7.746
X31.836 Y8.000
X31.753 Y8.274
X31.732 Y8.483
X31.732 Y9.637
X31.753 Y9.846
X31.836 Y10.120
X31.971 Y10.373
X32.064 Y10.487
X32.082 Y10.518
X32.093 Y10.553
X32.097 Y10.587
X32.097 Y13.699
X32.149 Y13.815
X32.195 Y14.030
X32.195 Y14.250
X32.149 Y14.465
X32.097 Y14.581
X32.097 Y15.240
X32.093 Y15.275
X32.082 Y15.310
X32.063 Y15.342
X32.039 Y15.369
X32.009 Y15.391
X31.975 Y15.406
X31.939 Y15.414
X31.902 Y15.414
X31.865 Y15.406
X31.835 Y15.393
X31.711 Y15.326
X31.437 Y15.243
X31.214 Y15.221
X30.167 Y15.221
X30.131 Y15.214
X30.096 Y15.198
X30.076 Y15.182
X29.932 Y15.167
X29.723 Y15.100
X29.533 Y14.990
X29.370 Y14.843
X29.240 Y14.665
X29.151 Y14.465
X29.107 Y14.254
X29.097 Y14.206
X29.085 Y14.193
X29.067 Y14.161
X29.055 Y14.125
X29.051 Y14.088
X29.055 Y14.052
X29.067 Y14.016
X29.084 Y13.987
X29.129 Y13.919
X29.151 Y13.815
X29.240 Y13.615
X29.346 Y13.470
X29.358 Y13.441
X29.433 Y13.063
X29.433 Y12.677
X29.358 Y12.299
X29.210 Y11.943
X29.049 Y11.701
X29.032 Y11.672
X29.021 Y11.637
X29.017 Y11.600
X29.021 Y11.563
X29.032 Y11.528
X29.049 Y11.499
X29.210 Y11.258
X29.358 Y10.901
X29.433 Y10.523
X29.433 Y10.137
X29.358 Y9.759
X29.210 Y9.402
X28.996 Y9.082
X28.723 Y8.809
X28.402 Y8.594
X28.046 Y8.447
X27.667 Y8.371
X27.283 Y8.371
X26.905 Y8.447
X26.548 Y8.594
X26.227 Y8.809
X25.954 Y9.082
X25.740 Y9.402
X25.592 Y9.759
X25.517 Y10.137
X25.517 Y10.523
X25.592 Y10.901
X25.740 Y11.258
X25.901 Y11.499
X25.918 Y11.528
X25.929 Y11.563
X25.933 Y11.600
X25.929 Y11.637
X25.918 Y11.672
X25.901 Y11.701
X25.740 Y11.943
X25.592 Y12.299
X25.517 Y12.677
X25.517 Y13.063
X25.592 Y13.441
X25.740 Y13.798
X25.954 Y14.119
X26.235 Y14.397
X26.258 Y14.413
X26.282 Y14.441
X26.301 Y14.473
X26.312 Y14.508
X26.316 Y14.545
X26.312 Y14.582
X26.301 Y14.617
X26.282 Y14.649
X26.258 Y14.677
X26.228 Y14.699
X26.194 Y14.714
X26.157 Y14.721
X26.013 Y14.721
X25.635 Y14.796
X25.278 Y14.944
X25.039 Y15.104
X25.006 Y15.119
X24.969 Y15.127
X24.932 Y15.127
X24.896 Y15.119
X24.862 Y15.104
X24.832 Y15.082
X24.807 Y15.055
X24.789 Y15.022
X24.777 Y14.987
X24.774 Y14.950
X24.777 Y14.913
X24.789 Y14.878
X24.884 Y14.700
X24.968 Y14.426
X24.996 Y14.140
X24.968 Y13.854
X24.884 Y13.580
X24.749 Y13.326
X24.557 Y13.095
X24.537 Y13.073
X24.518 Y13.041
X24.507 Y13.006
X24.503 Y12.969
X24.507 Y12.932
X24.519 Y12.895
X24.546 Y12.856
X24.765 Y12.527
X24.913 Y12.171
X24.988 Y11.793
X24.988 Y11.407
X24.913 Y11.029
X24.765 Y10.673
X24.551 Y10.352
X24.278 Y10.079
X23.957 Y9.864
X23.601 Y9.716
X23.222 Y9.641
X22.838 Y9.641
X22.460 Y9.716
X22.103 Y9.864
X21.782 Y10.079
X21.509 Y10.352
X21.295 Y10.673
X21.147 Y11.029
X21.072 Y11.407
X21.072 Y11.793
X21.147 Y12.171
X21.295 Y12.528
X21.525 Y12.868
X21.542 Y12.897
X21.553 Y12.932
X21.557 Y12.969
X21.553 Y13.006
X21.542 Y13.041
X21.523 Y13.074
X21.497 Y13.100
X21.311 Y13.327
X21.176 Y13.580
X21.093 Y13.854
X21.064 Y14.140
X21.093 Y14.426
X21.176 Y14.700
X21.312 Y14.954
X21.493 Y15.176
X21.620 Y15.279
X21.644 Y15.306
X21.662 Y15.338
X21.674 Y15.373
X21.678 Y15.410
X21.674 Y15.447
X21.662 Y15.482
X21.644 Y15.514
X21.620 Y15.541
X21.493 Y15.645
X21.312 Y15.866
X21.176 Y16.120
X21.093 Y16.394
X21.064 Y16.680
X21.093 Y16.966
X21.176 Y17.240
X21.312 Y17.494
X21.493 Y17.716
X21.620 Y17.819
X21.644 Y17.846
X21.662 Y17.878
X21.674 Y17.913
X21.678 Y17.950
X21.674 Y17.987
X21.662 Y18.022
X21.644 Y18.054
X21.620 Y18.081
X21.493 Y18.184
X21.312 Y18.406
X21.176 Y18.660
X21.093 Y18.934
X21.064 Y19.220
X21.093 Y19.506
X21.176 Y19.780
X21.312 Y20.034
X21.493 Y20.256
X21.620 Y20.359
X21.644 Y20.386
X21.662 Y20.418
X21.674 Y20.453
X21.678 Y20.490
X21.674 Y20.527
X21.662 Y20.562
X21.644 Y20.594
X21.620 Y20.621
X21.493 Y20.725
X21.312 Y20.946
X21.176 Y21.200
X21.093 Y21.474
X21.064 Y21.760
X21.093 Y22.046
X21.176 Y22.320
X21.312 Y22.574
X21.493 Y22.796
X21.620 Y22.899
X21.644 Y22.926
X21.662 Y22.958
X21.674 Y22.993
X21.678 Y23.030
X21.674 Y23.067
X21.662 Y23.102
X21.644 Y23.134
X21.620 Y23.161
X21.493 Y23.265
X21.312 Y23.486
X21.176 Y23.740
X21.093 Y24.014
X21.064 Y24.300
X21.093 Y24.586
X21.176 Y24.860
X21.312 Y25.114
X21.493 Y25.335
X21.620 Y25.439
X21.644 Y25.466
X21.662 Y25.498
X21.674 Y25.533
X21.678 Y25.570
X21.674 Y25.607
X21.662 Y25.642
X21.644 Y25.674
X21.620 Y25.701
X21.493 Y25.805
X21.312 Y26.026
X21.176 Y26.280
X21.093 Y26.554
X21.064 Y26.840
X21.093 Y27.126
X21.176 Y27.400
X21.312 Y27.654
X21.493 Y27.876
X21.620 Y27.979
X21.644 Y28.006
X21.662 Y28.038
X21.674 Y28.073
X21.678 Y28.110
X21.674 Y28.147
X21.662 Y28.182
X21.644 Y28.214
X21.620 Y28.241
X21.493 Y28.345
X21.312 Y28.566
X21.176 Y28.820
X21.093 Y29.094
X21.064 Y29.380
X21.093 Y29.666
X21.176 Y29.940
X21.311 Y30.194
X21.367 Y30.261
X21.385 Y30.292
X21.396 Y30.327
X21.400 Y30.364
X21.396 Y30.401
X21.385 Y30.436
X21.366 Y30.469
X21.341 Y30.496
X21.313 Y30.517
X21.274 Y30.538
X21.204 Y30.595
X21.147 Y30.665
X21.104 Y30.745
X21.078 Y30.831
X21.069 Y30.923
X21.069 Y32.917
X21.078 Y33.010
X21.104 Y33.095
X21.147 Y33.176
X21.204 Y33.245
X21.231 Y33.267
X21.274 Y33.303
X21.354 Y33.345
X21.440 Y33.371
X21.546 Y33.382
X21.779 Y33.382
X21.815 Y33.389
X21.849 Y33.404
X21.879 Y33.426
X21.903 Y33.454
X21.922 Y33.486
X21.933 Y33.521
X21.937 Y33.556
X21.937 Y34.130
X21.931 Y34.190
X21.952 Y34.404
X22.015 Y34.610
X22.117 Y34.800
X22.253 Y34.966
X22.295 Y35.001
X22.479 Y35.185
X22.498 Y35.207
X22.523 Y35.236
X22.689 Y35.373
X22.880 Y35.475
X23.085 Y35.537
X23.256 Y35.554
X23.300 Y35.558
X23.347 Y35.554
X30.669 Y35.554
X30.705 Y35.561
X30.739 Y35.577
X30.769 Y35.598
X30.793 Y35.626
X30.812 Y35.658
X30.823 Y35.693
X30.827 Y35.727
X30.827 Y37.099
X30.896 Y37.313
X30.930 Y37.635
X30.896 Y37.957
X30.827 Y38.171
X30.827 Y39.283
X30.823 Y39.317
X30.812 Y39.352
X30.794 Y39.383
X30.701 Y39.497
X30.566 Y39.750
X30.483 Y40.024
X30.462 Y40.233
X30.462 Y41.387
X30.483 Y41.596
X30.566 Y41.870
X30.701 Y42.123
X30.767 Y42.204
X30.883 Y42.346
X31.106 Y42.528
X31.359 Y42.664
X31.634 Y42.747
X31.920 Y42.775
X32.206 Y42.747
X32.481 Y42.664
X32.734 Y42.528
X32.957 Y42.346
X33.049 Y42.233
X33.071 Y42.208
X33.101 Y42.186
X33.135 Y42.171
X33.172 Y42.163
X33.209 Y42.163
X33.245 Y42.171
X33.279 Y42.186
X33.309 Y42.208
X33.331 Y42.233
X33.423 Y42.346
X33.646 Y42.528
X33.899 Y42.664
X34.174 Y42.747
X34.460 Y42.775
X34.746 Y42.747
X35.021 Y42.664
X35.274 Y42.528
X35.497 Y42.346
X35.589 Y42.233
X35.611 Y42.208
X35.641 Y42.186
X35.675 Y42.171
X35.712 Y42.163
X35.748 Y42.163
X35.785 Y42.171
X35.819 Y42.186
X35.849 Y42.208
X35.871 Y42.233
X35.963 Y42.346
X36.186 Y42.528
X36.439 Y42.664
X36.714 Y42.747
X37.000 Y42.775
X37.286 Y42.747
X37.561 Y42.664
X37.725 Y42.576
X37.756 Y42.562
X37.792 Y42.555
X37.829 Y42.555
X37.865 Y42.562
X37.899 Y42.577
X37.929 Y42.599
X37.954 Y42.627
X37.972 Y42.659
X37.984 Y42.694
X37.988 Y42.731
X37.984 Y42.768
X37.972 Y42.803
X37.956 Y42.832
X37.805 Y43.058
X37.657 Y43.414
X37.582 Y43.792
X37.582 Y44.178
X37.657 Y44.556
X37.805 Y44.913
X37.979 Y45.172
X37.995 Y45.202
X38.007 Y45.237
X38.011 Y45.274
X38.007 Y45.310
X37.995 Y45.346
X37.977 Y45.378
X37.952 Y45.405
X37.922 Y45.427
X37.888 Y45.442
X37.852 Y45.450
X37.663 Y45.450
X37.616 Y45.445
X37.572 Y45.450
X37.402 Y45.467
X37.196 Y45.529
X37.006 Y45.631
X36.839 Y45.767
X36.815 Y45.797
X36.796 Y45.819
X15.945 Y66.669
X15.903 Y66.704
X15.767 Y66.870
X15.665 Y67.060
X15.602 Y67.266
X15.587 Y67.422
X15.581 Y67.480
X15.587 Y67.540
X15.587 Y70.844
X15.583 Y70.878
X15.572 Y70.913
X15.553 Y70.945
X15.529 Y70.973
X15.502 Y70.992
X15.432 Y71.039
X15.159 Y71.312
X14.945 Y71.633
X14.797 Y71.989
X14.722 Y72.367
X14.722 Y72.753
X14.797 Y73.131
X14.945 Y73.487
X15.159 Y73.808
X15.432 Y74.081
X15.502 Y74.128
X15.529 Y74.147
X15.553 Y74.175
X15.572 Y74.207
X15.583 Y74.242
X15.587 Y74.276
X15.587 Y76.113
X15.583 Y76.147
X15.572 Y76.182
X15.554 Y76.213
X15.461 Y76.327
X15.326 Y76.580
X15.243 Y76.854
X15.222 Y77.063
X15.222 Y78.217
X15.243 Y78.426
X15.326 Y78.700
X15.462 Y78.954
X15.643 Y79.175
X15.866 Y79.358
X16.119 Y79.494
X16.394 Y79.577
X16.680 Y79.605
X16.966 Y79.577
X17.241 Y79.494
X17.494 Y79.358
X17.717 Y79.175
X17.899 Y78.954
X18.034 Y78.700
X18.117 Y78.426
X18.138 Y78.217
X18.138 Y77.063
X18.117 Y76.854
X18.034 Y76.580
X17.899 Y76.326
X17.806 Y76.213
X17.788 Y76.182
X17.777 Y76.147
X17.773 Y76.113
X17.773 Y74.276
X17.777 Y74.242
X17.788 Y74.207
X17.807 Y74.175
X17.831 Y74.147
X17.858 Y74.128
X17.928 Y74.081
X18.201 Y73.808
X18.415 Y73.487
X18.563 Y73.131
X18.638 Y72.753
X18.638 Y72.367
X18.563 Y71.989
X18.415 Y71.633
X18.201 Y71.312
X17.928 Y71.039
X17.858 Y70.992
X17.831 Y70.973
X17.807 Y70.945
X17.788 Y70.913
X17.777 Y70.878
X17.773 Y70.844
X17.773 Y68.003
X17.777 Y67.969
X17.788 Y67.934
X17.807 Y67.902
X17.829 Y67.877
X38.025 Y47.681
X38.054 Y47.660
X38.088 Y47.645
X38.124 Y47.637
X48.309 Y47.637
X48.345 Y47.645
X48.379 Y47.660
X48.409 Y47.682
X48.434 Y47.709
X48.452 Y47.742
X48.464 Y47.777
X48.468 Y47.814
X48.464 Y47.850
X48.452 Y47.886
X48.434 Y47.918
X48.412 Y47.942
X43.885 Y52.469
X43.843 Y52.504
X43.707 Y52.670
X43.605 Y52.860
X43.542 Y53.066
X43.527 Y53.223
X43.521 Y53.280
X43.527 Y53.340
X43.527 Y64.683
X43.523 Y64.717
X43.512 Y64.752
X43.493 Y64.784
X43.469 Y64.812
X43.439 Y64.834
X43.405 Y64.849
X43.369 Y64.856
X43.332 Y64.856
X43.295 Y64.849
X43.261 Y64.834
X43.231 Y64.812
X43.209 Y64.788
X43.116 Y64.674
X42.895 Y64.492
X42.641 Y64.356
X42.366 Y64.273
X42.080 Y64.245
X41.794 Y64.273
X41.519 Y64.356
X41.266 Y64.492
X41.043 Y64.675
X40.951 Y64.788
X40.929 Y64.812
X40.899 Y64.834
X40.865 Y64.849
X40.829 Y64.856
X40.791 Y64.856
X40.755 Y64.849
X40.721 Y64.834
X40.691 Y64.812
X40.669 Y64.788
X40.577 Y64.674
X40.354 Y64.492
X40.101 Y64.356
X39.827 Y64.273
X39.540 Y64.245
X39.254 Y64.273
X38.979 Y64.356
X38.726 Y64.492
X38.503 Y64.675
X38.411 Y64.788
X38.389 Y64.812
X38.359 Y64.834
X38.325 Y64.849
X38.288 Y64.856
X38.252 Y64.856
X38.215 Y64.849
X38.181 Y64.834
X38.151 Y64.812
X38.129 Y64.788
X38.036 Y64.674
X37.815 Y64.492
X37.561 Y64.356
X37.286 Y64.273
X37.000 Y64.245
X36.714 Y64.273
X36.439 Y64.356
X36.186 Y64.492
X35.963 Y64.675
X35.871 Y64.788
X35.849 Y64.812
X35.819 Y64.834
X35.785 Y64.849
X35.748 Y64.856
X35.712 Y64.856
X35.675 Y64.849
X35.641 Y64.834
X35.611 Y64.812
X35.589 Y64.788
X35.497 Y64.674
X35.274 Y64.492
X35.021 Y64.356
X34.747 Y64.273
X34.460 Y64.245
X34.174 Y64.273
X33.899 Y64.356
X33.735 Y64.444
X33.705 Y64.458
X33.668 Y64.466
X33.631 Y64.466
X33.595 Y64.458
X33.561 Y64.443
X33.531 Y64.421
X33.506 Y64.393
X33.488 Y64.361
X33.476 Y64.326
X33.472 Y64.289
X33.476 Y64.252
X33.488 Y64.217
X33.505 Y64.188
X33.655 Y63.963
X33.803 Y63.606
X33.878 Y63.228
X33.878 Y62.842
X33.803 Y62.464
X33.655 Y62.108
X33.441 Y61.787
X33.168 Y61.514
X32.847 Y61.299
X32.491 Y61.152
X32.112 Y61.076
X31.728 Y61.076
X31.350 Y61.152
X30.993 Y61.299
X30.672 Y61.514
X30.399 Y61.787
X30.185 Y62.108
X30.037 Y62.464
X29.962 Y62.842
X29.962 Y63.228
X30.037 Y63.606
X30.185 Y63.963
X30.399 Y64.283
X30.672 Y64.556
X30.703 Y64.577
X30.729 Y64.596
X30.754 Y64.624
X30.773 Y64.656
X30.784 Y64.691
X30.788 Y64.728
X30.784 Y64.765
X30.773 Y64.800
X30.755 Y64.831
X30.701 Y64.897
X30.566 Y65.150
X30.483 Y65.424
X30.462 Y65.633
X30.462 Y66.787
X30.483 Y66.996
X30.566 Y67.270
X30.702 Y67.524
X30.883 Y67.746
X31.106 Y67.928
X31.170 Y67.963
X31.199 Y67.983
X31.224 Y68.011
X31.242 Y68.043
X31.254 Y68.078
X31.257 Y68.115
X31.254 Y68.152
X31.242 Y68.187
X31.224 Y68.219
X31.199 Y68.247
X31.169 Y68.269
X31.135 Y68.284
X31.099 Y68.291
X30.062 Y68.291
X30.015 Y68.287
X29.971 Y68.291
X29.800 Y68.308
X29.595 Y68.370
X29.404 Y68.472
X29.238 Y68.609
X29.213 Y68.638
X29.194 Y68.660
X27.275 Y70.579
X27.246 Y70.600
X27.212 Y70.615
X27.176 Y70.623
X27.139 Y70.623
X27.032 Y70.601
X26.648 Y70.601
X26.270 Y70.677
X25.913 Y70.824
X25.592 Y71.039
X25.319 Y71.312
X25.105 Y71.633
X24.957 Y71.989
X24.882 Y72.367
X24.882 Y72.753
X24.957 Y73.131
X25.105 Y73.487
X25.319 Y73.808
X25.592 Y74.081
X25.662 Y74.128
X25.689 Y74.147
X25.713 Y74.175
X25.732 Y74.207
X25.743 Y74.242
X25.747 Y74.276
X25.747 Y76.113
X25.743 Y76.147
X25.732 Y76.182
X25.714 Y76.213
X25.621 Y76.327
X25.486 Y76.580
X25.402 Y76.854
X25.382 Y77.063
X25.382 Y78.217
X25.402 Y78.426
X25.486 Y78.700
X25.622 Y78.954
X25.803 Y79.175
X26.026 Y79.358
X26.279 Y79.494
X26.554 Y79.577
X26.840 Y79.605
X27.126 Y79.577
X27.401 Y79.494
X27.654 Y79.358
X27.877 Y79.175
X28.059 Y78.954
X28.194 Y78.700
X28.277 Y78.426
X28.298 Y78.217
X28.298 Y77.063
X28.277 Y76.854
X28.194 Y76.580
X28.059 Y76.326
X27.966 Y76.213
X27.948 Y76.182
X27.937 Y76.147
X27.933 Y76.113
X27.933 Y74.276
X27.937 Y74.242
X27.948 Y74.207
X27.967 Y74.175
X27.991 Y74.147
X28.018 Y74.128
X28.088 Y74.081
X28.361 Y73.808
X28.575 Y73.488
X28.723 Y73.131
X28.798 Y72.753
X28.798 Y72.367
X28.780 Y72.276
X28.776 Y72.242
X28.780 Y72.206
X28.792 Y72.170
X28.810 Y72.138
X28.832 Y72.114
X30.424 Y70.523
X30.452 Y70.502
X30.486 Y70.486
X30.523 Y70.479
X35.048 Y70.479
X35.095 Y70.483
X35.139 Y70.479
X35.310 Y70.462
X35.516 Y70.400
X35.706 Y70.298
X35.772 Y70.243
X35.832 Y70.194
X35.872 Y70.161
X35.897 Y70.132
X35.916 Y70.110
X37.735 Y68.291
X37.777 Y68.256
X37.913 Y68.090
X38.015 Y67.900
X38.064 Y67.740
X38.074 Y67.710
X38.092 Y67.678
X38.129 Y67.633
X38.151 Y67.608
X38.181 Y67.586
X38.215 Y67.571
X38.252 Y67.564
X38.288 Y67.564
X38.325 Y67.571
X38.359 Y67.586
X38.389 Y67.608
X38.413 Y67.636
X38.432 Y67.668
X38.443 Y67.703
X38.447 Y67.737
X38.447 Y69.497
X38.443 Y69.531
X38.432 Y69.566
X38.413 Y69.598
X38.391 Y69.623
X37.435 Y70.579
X37.406 Y70.600
X37.372 Y70.615
X37.336 Y70.623
X37.299 Y70.623
X37.192 Y70.601
X36.808 Y70.601
X36.430 Y70.677
X36.073 Y70.824
X35.752 Y71.039
X35.479 Y71.312
X35.265 Y71.633
X35.117 Y71.989
X35.042 Y72.367
X35.042 Y72.753
X35.117 Y73.131
X35.265 Y73.487
X35.479 Y73.808
X35.752 Y74.081
X35.822 Y74.128
X35.849 Y74.147
X35.873 Y74.175
X35.892 Y74.207
X35.903 Y74.242
X35.907 Y74.276
X35.907 Y76.113
X35.903 Y76.147
X35.892 Y76.182
X35.874 Y76.213
X35.781 Y76.327
X35.646 Y76.580
X35.563 Y76.854
X35.542 Y77.063
X35.542 Y78.217
X35.563 Y78.426
X35.646 Y78.700
X35.782 Y78.954
X35.963 Y79.175
X36.186 Y79.358
X36.439 Y79.494
X36.714 Y79.577
X37.000 Y79.605
X37.286 Y79.577
X37.561 Y79.494
X37.814 Y79.358
X38.037 Y79.175
X38.218 Y78.954
X38.354 Y78.700
X38.438 Y78.426
X38.458 Y78.217
X38.458 Y77.063
X38.438 Y76.854
X38.354 Y76.580
X38.219 Y76.326
X38.126 Y76.213
X38.108 Y76.182
X38.097 Y76.147
X38.093 Y76.113
X38.093 Y74.276
X38.097 Y74.242
X38.108 Y74.207
X38.127 Y74.175
X38.151 Y74.147
X38.178 Y74.128
X38.248 Y74.081
X38.521 Y73.808
X38.735 Y73.487
X38.883 Y73.131
X38.958 Y72.753
X38.958 Y72.367
X38.940 Y72.276
X38.936 Y72.242
X38.940 Y72.206
X38.952 Y72.170
X38.970 Y72.138
X38.992 Y72.114
X40.275 Y70.831
X40.315 Y70.798
X40.465 Y70.608
X40.555 Y70.440
X40.617 Y70.235
X40.638 Y70.013
X40.633 Y69.960
X40.633 Y67.737
X40.637 Y67.703
X40.648 Y67.668
X40.667 Y67.636
X40.691 Y67.608
X40.721 Y67.586
X40.755 Y67.571
X40.791 Y67.564
X40.829 Y67.564
X40.865 Y67.571
X40.899 Y67.586
X40.929 Y67.608
X40.951 Y67.633
X40.988 Y67.678
X41.006 Y67.710
X41.016 Y67.740
X41.065 Y67.900
X41.125 Y68.012
X41.166 Y68.090
X41.279 Y68.228
X41.303 Y68.256
X41.345 Y68.291
X45.168 Y72.114
X45.190 Y72.138
X45.208 Y72.170
X45.220 Y72.206
X45.224 Y72.242
X45.220 Y72.276
X45.202 Y72.367
X45.202 Y72.753
X45.277 Y73.131
X45.425 Y73.487
X45.639 Y73.808
X45.912 Y74.081
X45.982 Y74.128
X46.009 Y74.147
X46.033 Y74.175
X46.052 Y74.207
X46.063 Y74.242
X46.067 Y74.276
X46.067 Y76.113
X46.063 Y76.147
X46.052 Y76.182
X46.034 Y76.213
X45.941 Y76.327
X45.806 Y76.580
X45.723 Y76.854
X45.702 Y77.063
X45.702 Y78.217
X45.723 Y78.426
X45.806 Y78.700
X45.942 Y78.954
X46.123 Y79.175
X46.346 Y79.358
X46.599 Y79.494
X46.874 Y79.577
X47.160 Y79.605
X47.446 Y79.577
X47.721 Y79.494
X47.974 Y79.358
X48.197 Y79.175
X48.379 Y78.954
X48.514 Y78.700
X48.598 Y78.426
X48.618 Y78.217
X48.618 Y77.063
X48.598 Y76.854
X48.514 Y76.580
X48.379 Y76.326
X48.286 Y76.213
X48.268 Y76.182
X48.257 Y76.147
X48.253 Y76.113
X48.253 Y74.276
X48.257 Y74.242
X48.268 Y74.207
X48.287 Y74.175
X48.311 Y74.147
X48.338 Y74.128
X48.408 Y74.081
X48.681 Y73.808
X48.895 Y73.488
X49.043 Y73.131
X49.118 Y72.753
X49.118 Y72.367
X49.043 Y71.989
X48.895 Y71.633
X48.681 Y71.312
X48.408 Y71.039
X48.087 Y70.824
X47.730 Y70.677
X47.352 Y70.601
X46.968 Y70.601
X46.861 Y70.623
X46.824 Y70.623
X46.788 Y70.615
X46.754 Y70.600
X46.725 Y70.579
X44.616 Y68.470
X44.594 Y68.446
X44.575 Y68.413
X44.564 Y68.378
X44.560 Y68.341
X44.564 Y68.305
X44.575 Y68.269
X44.594 Y68.237
X44.619 Y68.210
X44.649 Y68.188
X44.683 Y68.173
X44.717 Y68.166
X44.906 Y68.147
X45.181 Y68.064
X45.434 Y67.928
X45.657 Y67.746
X45.749 Y67.633
X45.771 Y67.608
X45.801 Y67.586
X45.835 Y67.571
X45.872 Y67.564
X45.909 Y67.564
X45.945 Y67.571
X45.979 Y67.586
X46.009 Y67.608
X46.031 Y67.633
X46.123 Y67.746
X46.346 Y67.928
X46.599 Y68.064
X46.874 Y68.147
X47.160 Y68.175
X47.446 Y68.147
X47.721 Y68.064
X47.974 Y67.928
X48.197 Y67.746
X48.289 Y67.633
X48.311 Y67.608
X48.341 Y67.586
X48.375 Y67.571
X48.412 Y67.564
X48.449 Y67.564
X48.485 Y67.571
X48.519 Y67.586
X48.549 Y67.608
X48.571 Y67.633
X48.663 Y67.746
X48.886 Y67.928
X49.139 Y68.064
X49.414 Y68.147
X49.700 Y68.175
X49.986 Y68.147
X50.261 Y68.064
X50.514 Y67.928
X50.737 Y67.746
X50.829 Y67.633
X50.851 Y67.608
X50.881 Y67.586
X50.915 Y67.571
X50.952 Y67.564
X50.989 Y67.564
X51.025 Y67.571
X51.059 Y67.586
X51.089 Y67.608
X51.111 Y67.633
X51.148 Y67.678
X51.166 Y67.710
X51.176 Y67.740
X51.204 Y67.831
X51.204 Y67.831
X51.225 Y67.900
X51.327 Y68.090
X51.463 Y68.256
X51.505 Y68.291
X57.441 Y74.227
X57.463 Y74.252
X57.482 Y74.284
X57.493 Y74.319
X57.497 Y74.353
X57.497 Y79.377
X57.493 Y79.411
X57.482 Y79.446
X57.463 Y79.478
X57.439 Y79.506
X57.410 Y79.527
X57.334 Y79.568
X57.264 Y79.625
X57.207 Y79.695
X57.164 Y79.775
X57.138 Y79.861
X57.129 Y79.953
X57.129 Y82.947
X57.138 Y83.040
X57.164 Y83.125
X57.207 Y83.206
X57.264 Y83.275
X57.334 Y83.333
X57.414 Y83.375
X57.500 Y83.401
X57.606 Y83.412
G0  Z3.000
G0  X49.986 Y83.412
G0  Z0
G01 F50 Z-0.070
G01 F400 X51.954 Y83.412
X52.060 Y83.401
X52.147 Y83.375
X52.226 Y83.333
X52.296 Y83.275
X52.353 Y83.206
X52.396 Y83.125
X52.422 Y83.040
X52.431 Y82.947
X52.431 Y81.605
X52.435 Y81.571
X52.446 Y81.536
X52.465 Y81.504
X52.487 Y81.479
X52.975 Y80.991
X53.017 Y80.957
X53.154 Y80.790
X53.255 Y80.600
X53.318 Y80.394
X53.339 Y80.180
X53.333 Y80.120
X53.333 Y79.167
X53.337 Y79.133
X53.348 Y79.098
X53.366 Y79.066
X53.459 Y78.954
X53.594 Y78.700
X53.678 Y78.426
X53.698 Y78.217
X53.698 Y77.063
X53.678 Y76.854
X53.594 Y76.580
X53.459 Y76.326
X53.277 Y76.104
X53.054 Y75.922
X52.801 Y75.786
X52.527 Y75.703
X52.240 Y75.675
X51.954 Y75.703
X51.679 Y75.786
X51.426 Y75.922
X51.203 Y76.105
X51.022 Y76.326
X50.886 Y76.580
X50.803 Y76.854
X50.782 Y77.063
X50.782 Y78.217
X50.803 Y78.426
X50.886 Y78.700
X51.021 Y78.954
X51.114 Y79.067
X51.132 Y79.098
X51.143 Y79.133
X51.147 Y79.167
X51.147 Y79.315
X51.143 Y79.349
X51.132 Y79.384
X51.113 Y79.416
X51.089 Y79.444
X51.059 Y79.466
X51.025 Y79.481
X50.989 Y79.488
X49.986 Y79.488
X49.880 Y79.499
X49.794 Y79.525
X49.714 Y79.568
X49.644 Y79.625
X49.587 Y79.695
X49.544 Y79.775
X49.518 Y79.861
X49.509 Y79.953
X49.509 Y82.947
X49.518 Y83.040
X49.544 Y83.125
X49.587 Y83.206
X49.644 Y83.275
X49.714 Y83.333
X49.794 Y83.375
X49.880 Y83.401
X49.986 Y83.412
G0  Z3.000
G0  X19.506 Y83.412
G0  Z0
G01 F50 Z-0.070
G01 F400 X21.474 Y83.412
X21.580 Y83.401
X21.666 Y83.375
X21.746 Y83.333
X21.816 Y83.275
X21.873 Y83.205
X21.916 Y83.125
X21.942 Y83.040
X21.951 Y82.947
X21.951 Y81.605
X21.955 Y81.571
X21.966 Y81.536
X21.985 Y81.504
X22.007 Y81.479
X22.495 Y80.991
X22.537 Y80.957
X22.674 Y80.790
X22.775 Y80.600
X22.838 Y80.394
X22.859 Y80.180
X22.853 Y80.120
X22.853 Y79.167
X22.857 Y79.133
X22.868 Y79.098
X22.886 Y79.067
X22.979 Y78.954
X23.114 Y78.700
X23.198 Y78.426
X23.218 Y78.217
X23.218 Y77.063
X23.198 Y76.854
X23.114 Y76.580
X22.979 Y76.326
X22.797 Y76.104
X22.574 Y75.922
X22.321 Y75.786
X22.047 Y75.703
X21.760 Y75.675
X21.474 Y75.703
X21.199 Y75.786
X20.946 Y75.922
X20.723 Y76.105
X20.542 Y76.326
X20.406 Y76.580
X20.323 Y76.854
X20.302 Y77.063
X20.302 Y78.217
X20.323 Y78.426
X20.406 Y78.700
X20.541 Y78.954
X20.634 Y79.067
X20.652 Y79.098
X20.663 Y79.133
X20.667 Y79.167
X20.667 Y79.315
X20.663 Y79.349
X20.652 Y79.384
X20.633 Y79.416
X20.609 Y79.444
X20.579 Y79.466
X20.545 Y79.481
X20.509 Y79.488
X19.506 Y79.488
X19.400 Y79.499
X19.314 Y79.525
X19.234 Y79.568
X19.164 Y79.625
X19.107 Y79.695
X19.064 Y79.775
X19.038 Y79.861
X19.029 Y79.953
X19.029 Y82.947
X19.038 Y83.040
X19.064 Y83.125
X19.107 Y83.205
X19.164 Y83.275
X19.234 Y83.333
X19.314 Y83.375
X19.400 Y83.401
X19.506 Y83.412
G0  Z3.000
G0  X69.852 Y83.159
G0  Z0
G01 F50 Z-0.070
G01 F400 X70.188 Y83.159
X70.517 Y83.093
X70.828 Y82.964
X71.108 Y82.777
X71.347 Y82.539
X71.534 Y82.259
X71.662 Y81.948
X71.728 Y81.618
X71.728 Y81.282
X71.662 Y80.952
X71.534 Y80.641
X71.346 Y80.361
X71.109 Y80.123
X70.829 Y79.936
X70.518 Y79.807
X70.188 Y79.741
X69.852 Y79.741
X69.523 Y79.807
X69.212 Y79.936
X68.932 Y80.123
X68.693 Y80.361
X68.506 Y80.641
X68.378 Y80.952
X68.312 Y81.282
X68.312 Y81.618
X68.378 Y81.948
X68.506 Y82.259
X68.693 Y82.539
X68.932 Y82.777
X69.212 Y82.964
X69.523 Y83.093
X69.852 Y83.159
G0  Z3.000
G0  X3.812 Y83.159
G0  Z0
G01 F50 Z-0.070
G01 F400 X4.148 Y83.159
X4.478 Y83.093
X4.788 Y82.964
X5.068 Y82.777
X5.307 Y82.539
X5.494 Y82.259
X5.622 Y81.949
X5.688 Y81.618
X5.688 Y81.282
X5.622 Y80.952
X5.494 Y80.641
X5.306 Y80.361
X5.069 Y80.123
X4.789 Y79.936
X4.478 Y79.807
X4.148 Y79.741
X3.812 Y79.741
X3.483 Y79.807
X3.172 Y79.936
X2.892 Y80.123
X2.653 Y80.361
X2.466 Y80.641
X2.338 Y80.952
X2.272 Y81.282
X2.272 Y81.618
X2.338 Y81.948
X2.466 Y82.259
X2.653 Y82.539
X2.892 Y82.777
X3.172 Y82.964
X3.483 Y83.093
X3.812 Y83.159
G0  Z3.000
G0  X57.540 Y83.000
G0  Z0
G01 F50 Z-0.070
G01 F400 X57.540 Y79.900
X57.905 Y79.900
X57.905 Y74.113
X51.779 Y67.986
X51.686 Y67.883
X51.614 Y67.759
X51.570 Y67.622
X51.558 Y67.505
X51.537 Y67.490
X51.390 Y67.327
X51.281 Y67.137
X51.213 Y66.928
X51.190 Y66.713
X51.190 Y65.707
X51.213 Y65.492
X51.281 Y65.283
X51.390 Y65.093
X51.537 Y64.930
X51.715 Y64.800
X51.915 Y64.711
X52.130 Y64.666
X52.350 Y64.666
X52.565 Y64.711
X52.765 Y64.800
X52.943 Y64.930
X53.090 Y65.093
X53.200 Y65.283
X53.267 Y65.492
X53.290 Y65.707
X53.290 Y66.713
X53.267 Y66.928
X53.200 Y67.137
X53.090 Y67.327
X53.073 Y67.346
X59.051 Y73.324
X59.144 Y73.427
X59.216 Y73.551
X59.260 Y73.688
X59.275 Y73.827
X59.275 Y79.900
X59.640 Y79.900
X59.640 Y83.000
X57.540 Y83.000
G0  Z3.000
G0  X49.920 Y83.000
G0  Z0
G01 F50 Z-0.070
G01 F400 X49.920 Y79.900
X51.552 Y79.900
X51.555 Y79.897
X51.555 Y78.933
X51.537 Y78.921
X51.390 Y78.757
X51.281 Y78.567
X51.213 Y78.358
X51.190 Y78.143
X51.190 Y77.137
X51.213 Y76.922
X51.281 Y76.713
X51.390 Y76.523
X51.537 Y76.359
X51.715 Y76.230
X51.915 Y76.141
X52.130 Y76.096
X52.350 Y76.096
X52.565 Y76.141
X52.765 Y76.230
X52.943 Y76.359
X53.090 Y76.523
X53.200 Y76.713
X53.267 Y76.922
X53.290 Y77.137
X53.290 Y78.143
X53.267 Y78.358
X53.200 Y78.567
X53.090 Y78.757
X52.943 Y78.921
X52.925 Y78.933
X52.925 Y80.183
X52.910 Y80.323
X52.866 Y80.459
X52.794 Y80.583
X52.701 Y80.686
X52.020 Y81.368
X52.020 Y83.000
X49.920 Y83.000
G0  Z3.000
G0  X19.440 Y83.000
G0  Z0
G01 F50 Z-0.070
G01 F400 X19.440 Y79.900
X21.072 Y79.900
X21.075 Y79.897
X21.075 Y78.933
X21.057 Y78.921
X20.910 Y78.757
X20.800 Y78.567
X20.733 Y78.358
X20.710 Y78.143
X20.710 Y77.137
X20.733 Y76.922
X20.800 Y76.713
X20.910 Y76.523
X21.057 Y76.359
X21.235 Y76.230
X21.435 Y76.141
X21.650 Y76.096
X21.870 Y76.096
X22.085 Y76.141
X22.285 Y76.230
X22.463 Y76.359
X22.610 Y76.523
X22.720 Y76.713
X22.787 Y76.922
X22.810 Y77.137
X22.810 Y78.143
X22.787 Y78.358
X22.720 Y78.567
X22.610 Y78.757
X22.463 Y78.921
X22.445 Y78.933
X22.445 Y80.183
X22.430 Y80.323
X22.386 Y80.459
X22.314 Y80.583
X22.221 Y80.686
X21.540 Y81.368
X21.540 Y83.000
X19.440 Y83.000
G0  Z3.000
G0  X40.700 Y82.995
G0  Z0
G01 F50 Z-0.070
G01 F400 X40.485 Y82.949
X40.285 Y82.860
X40.107 Y82.731
X39.960 Y82.567
X39.851 Y82.377
X39.783 Y82.168
X39.760 Y81.953
X39.760 Y80.947
X39.783 Y80.732
X39.851 Y80.523
X39.960 Y80.333
X40.107 Y80.169
X40.285 Y80.040
X40.485 Y79.951
X40.700 Y79.906
X40.920 Y79.906
X41.135 Y79.951
X41.278 Y80.015
X41.395 Y79.897
X41.395 Y78.933
X41.377 Y78.921
X41.230 Y78.757
X41.120 Y78.567
X41.053 Y78.358
X41.030 Y78.143
X41.030 Y77.137
X41.053 Y76.922
X41.120 Y76.713
X41.230 Y76.523
X41.377 Y76.359
X41.555 Y76.230
X41.755 Y76.141
X41.970 Y76.096
X42.190 Y76.096
X42.405 Y76.141
X42.605 Y76.230
X42.783 Y76.359
X42.930 Y76.523
X43.040 Y76.713
X43.107 Y76.922
X43.130 Y77.137
X43.130 Y78.143
X43.107 Y78.358
X43.040 Y78.567
X42.930 Y78.757
X42.783 Y78.921
X42.765 Y78.933
X42.765 Y80.183
X42.750 Y80.323
X42.706 Y80.459
X42.634 Y80.583
X42.541 Y80.686
X41.860 Y81.368
X41.860 Y81.953
X41.837 Y82.168
X41.770 Y82.377
X41.660 Y82.567
X41.513 Y82.731
X41.335 Y82.860
X41.135 Y82.949
X40.920 Y82.995
X40.700 Y82.995
G0  Z3.000
G0  X30.540 Y82.995
G0  Z0
G01 F50 Z-0.070
G01 F400 X30.325 Y82.949
X30.125 Y82.860
X29.947 Y82.731
X29.800 Y82.567
X29.691 Y82.377
X29.623 Y82.168
X29.600 Y81.953
X29.600 Y80.947
X29.623 Y80.732
X29.691 Y80.523
X29.800 Y80.333
X29.947 Y80.169
X30.125 Y80.040
X30.325 Y79.951
X30.540 Y79.906
X30.760 Y79.906
X30.975 Y79.951
X31.118 Y80.015
X31.235 Y79.897
X31.235 Y78.933
X31.217 Y78.921
X31.070 Y78.757
X30.961 Y78.567
X30.893 Y78.358
X30.870 Y78.143
X30.870 Y77.137
X30.893 Y76.922
X30.961 Y76.713
X31.070 Y76.523
X31.217 Y76.359
X31.395 Y76.230
X31.595 Y76.141
X31.810 Y76.096
X32.030 Y76.096
X32.245 Y76.141
X32.445 Y76.230
X32.623 Y76.359
X32.770 Y76.523
X32.880 Y76.713
X32.947 Y76.922
X32.970 Y77.137
X32.970 Y78.143
X32.947 Y78.358
X32.880 Y78.567
X32.770 Y78.757
X32.623 Y78.921
X32.605 Y78.933
X32.605 Y80.183
X32.590 Y80.323
X32.546 Y80.459
X32.474 Y80.583
X32.381 Y80.686
X31.700 Y81.368
X31.700 Y81.953
X31.677 Y82.168
X31.610 Y82.377
X31.500 Y82.567
X31.353 Y82.731
X31.175 Y82.860
X30.975 Y82.949
X30.760 Y82.995
X30.540 Y82.995
G0  Z3.000
G0  X26.730 Y79.184
G0  Z0
G01 F50 Z-0.070
G01 F400 X26.515 Y79.139
X26.315 Y79.050
X26.137 Y78.921
X25.990 Y78.757
X25.881 Y78.567
X25.813 Y78.358
X25.790 Y78.143
X25.790 Y77.137
X25.813 Y76.922
X25.881 Y76.713
X25.990 Y76.523
X26.137 Y76.359
X26.155 Y76.347
X26.155 Y73.943
X26.065 Y73.903
X25.803 Y73.712
X25.586 Y73.471
X25.424 Y73.191
X25.324 Y72.882
X25.290 Y72.560
X25.324 Y72.238
X25.424 Y71.929
X25.586 Y71.649
X25.803 Y71.408
X26.065 Y71.217
X26.361 Y71.086
X26.678 Y71.018
X27.002 Y71.018
X27.319 Y71.086
X27.338 Y71.094
X29.558 Y68.875
X29.672 Y68.791
X29.803 Y68.733
X29.943 Y68.704
X34.809 Y68.704
X36.167 Y67.346
X36.150 Y67.327
X36.041 Y67.137
X35.973 Y66.928
X35.950 Y66.713
X35.950 Y65.707
X35.973 Y65.492
X36.041 Y65.283
X36.150 Y65.093
X36.297 Y64.930
X36.475 Y64.800
X36.675 Y64.711
X36.890 Y64.666
X37.110 Y64.666
X37.325 Y64.711
X37.525 Y64.800
X37.703 Y64.930
X37.850 Y65.093
X37.959 Y65.283
X38.027 Y65.492
X38.050 Y65.707
X38.050 Y66.713
X38.027 Y66.928
X37.959 Y67.137
X37.850 Y67.327
X37.703 Y67.490
X37.683 Y67.506
X37.670 Y67.623
X37.626 Y67.759
X37.554 Y67.883
X37.461 Y67.986
X35.553 Y69.895
X35.438 Y69.978
X35.307 Y70.037
X35.167 Y70.067
X30.301 Y70.067
X28.301 Y72.067
X28.356 Y72.238
X28.390 Y72.560
X28.356 Y72.882
X28.256 Y73.191
X28.094 Y73.471
X27.877 Y73.712
X27.615 Y73.903
X27.525 Y73.943
X27.525 Y76.347
X27.543 Y76.359
X27.690 Y76.523
X27.800 Y76.713
X27.867 Y76.922
X27.890 Y77.137
X27.890 Y78.143
X27.867 Y78.358
X27.800 Y78.567
X27.690 Y78.757
X27.543 Y78.921
X27.365 Y79.050
X27.165 Y79.139
X26.950 Y79.184
X26.730 Y79.184
G0  Z3.000
G0  X36.890 Y79.184
G0  Z0
G01 F50 Z-0.070
G01 F400 X36.675 Y79.139
X36.475 Y79.050
X36.297 Y78.921
X36.150 Y78.757
X36.041 Y78.567
X35.973 Y78.358
X35.950 Y78.143
X35.950 Y77.137
X35.973 Y76.922
X36.041 Y76.713
X36.150 Y76.523
X36.297 Y76.359
X36.315 Y76.347
X36.315 Y73.943
X36.225 Y73.903
X35.963 Y73.712
X35.746 Y73.471
X35.584 Y73.191
X35.484 Y72.882
X35.450 Y72.560
X35.484 Y72.238
X35.584 Y71.929
X35.746 Y71.649
X35.963 Y71.408
X36.225 Y71.217
X36.521 Y71.086
X36.838 Y71.018
X37.162 Y71.018
X37.479 Y71.086
X37.498 Y71.094
X38.855 Y69.737
X38.855 Y67.503
X38.837 Y67.490
X38.690 Y67.327
X38.581 Y67.137
X38.513 Y66.928
X38.490 Y66.713
X38.490 Y65.707
X38.513 Y65.492
X38.581 Y65.283
X38.690 Y65.093
X38.837 Y64.930
X39.015 Y64.800
X39.215 Y64.711
X39.430 Y64.666
X39.650 Y64.666
X39.865 Y64.711
X40.065 Y64.800
X40.243 Y64.930
X40.390 Y65.093
X40.500 Y65.283
X40.567 Y65.492
X40.590 Y65.707
X40.590 Y66.713
X40.567 Y66.928
X40.500 Y67.137
X40.390 Y67.327
X40.243 Y67.490
X40.225 Y67.503
X40.225 Y70.023
X40.210 Y70.163
X40.166 Y70.299
X40.094 Y70.423
X40.001 Y70.526
X38.461 Y72.067
X38.516 Y72.238
X38.550 Y72.560
X38.516 Y72.882
X38.416 Y73.191
X38.254 Y73.471
X38.037 Y73.712
X37.775 Y73.903
X37.685 Y73.943
X37.685 Y76.347
X37.703 Y76.359
X37.850 Y76.523
X37.959 Y76.713
X38.027 Y76.922
X38.050 Y77.137
X38.050 Y78.143
X38.027 Y78.358
X37.959 Y78.567
X37.850 Y78.757
X37.703 Y78.921
X37.525 Y79.050
X37.325 Y79.139
X37.110 Y79.184
X36.890 Y79.184
G0  Z3.000
G0  X47.050 Y79.184
G0  Z0
G01 F50 Z-0.070
G01 F400 X46.835 Y79.139
X46.635 Y79.050
X46.457 Y78.921
X46.310 Y78.757
X46.201 Y78.567
X46.133 Y78.358
X46.110 Y78.143
X46.110 Y77.137
X46.133 Y76.922
X46.201 Y76.713
X46.310 Y76.523
X46.457 Y76.359
X46.475 Y76.347
X46.475 Y73.943
X46.385 Y73.903
X46.123 Y73.712
X45.906 Y73.471
X45.744 Y73.191
X45.644 Y72.882
X45.610 Y72.560
X45.644 Y72.238
X45.699 Y72.067
X41.619 Y67.986
X41.526 Y67.883
X41.454 Y67.759
X41.410 Y67.622
X41.398 Y67.505
X41.377 Y67.490
X41.230 Y67.327
X41.120 Y67.137
X41.053 Y66.928
X41.030 Y66.713
X41.030 Y65.707
X41.053 Y65.492
X41.120 Y65.283
X41.230 Y65.093
X41.377 Y64.930
X41.555 Y64.800
X41.755 Y64.711
X41.970 Y64.666
X42.190 Y64.666
X42.405 Y64.711
X42.605 Y64.800
X42.783 Y64.930
X42.930 Y65.093
X43.040 Y65.283
X43.107 Y65.492
X43.130 Y65.707
X43.130 Y66.713
X43.107 Y66.928
X43.040 Y67.137
X42.930 Y67.327
X42.913 Y67.346
X46.662 Y71.094
X46.681 Y71.086
X46.998 Y71.018
X47.322 Y71.018
X47.639 Y71.086
X47.935 Y71.217
X48.197 Y71.408
X48.414 Y71.649
X48.576 Y71.929
X48.676 Y72.238
X48.710 Y72.560
X48.676 Y72.882
X48.576 Y73.191
X48.414 Y73.471
X48.197 Y73.712
X47.935 Y73.903
X47.845 Y73.943
X47.845 Y76.347
X47.863 Y76.359
X48.010 Y76.523
X48.120 Y76.713
X48.187 Y76.922
X48.210 Y77.137
X48.210 Y78.143
X48.187 Y78.358
X48.120 Y78.567
X48.010 Y78.757
X47.863 Y78.921
X47.685 Y79.050
X47.485 Y79.139
X47.270 Y79.184
X47.050 Y79.184
G0  Z3.000
G0  X16.570 Y79.184
G0  Z0
G01 F50 Z-0.070
G01 F400 X16.355 Y79.139
X16.155 Y79.050
X15.977 Y78.921
X15.830 Y78.757
X15.721 Y78.567
X15.653 Y78.358
X15.630 Y78.143
X15.630 Y77.137
X15.653 Y76.922
X15.721 Y76.713
X15.830 Y76.523
X15.977 Y76.359
X15.995 Y76.347
X15.995 Y73.943
X15.905 Y73.903
X15.643 Y73.712
X15.426 Y73.471
X15.264 Y73.191
X15.164 Y72.882
X15.130 Y72.560
X15.164 Y72.238
X15.264 Y71.929
X15.426 Y71.649
X15.643 Y71.408
X15.905 Y71.217
X15.995 Y71.177
X15.995 Y67.477
X16.010 Y67.338
X16.054 Y67.201
X16.126 Y67.077
X16.219 Y66.974
X37.159 Y46.034
X37.274 Y45.950
X37.405 Y45.892
X37.545 Y45.862
X48.761 Y45.862
X49.015 Y45.607
X49.015 Y42.103
X48.997 Y42.090
X48.850 Y41.927
X48.741 Y41.737
X48.673 Y41.528
X48.650 Y41.313
X48.650 Y40.307
X48.673 Y40.092
X48.741 Y39.883
X48.850 Y39.693
X48.997 Y39.529
X49.175 Y39.400
X49.375 Y39.311
X49.590 Y39.266
X49.810 Y39.266
X50.025 Y39.311
X50.225 Y39.400
X50.403 Y39.529
X50.550 Y39.693
X50.660 Y39.883
X50.727 Y40.092
X50.750 Y40.307
X50.750 Y41.313
X50.727 Y41.528
X50.660 Y41.737
X50.550 Y41.927
X50.403 Y42.090
X50.385 Y42.103
X50.385 Y45.893
X50.370 Y46.032
X50.326 Y46.169
X50.254 Y46.293
X50.161 Y46.396
X49.504 Y47.054
X49.389 Y47.137
X49.258 Y47.195
X49.118 Y47.225
X37.902 Y47.225
X17.365 Y67.763
X17.365 Y71.177
X17.455 Y71.217
X17.717 Y71.408
X17.934 Y71.649
X18.096 Y71.929
X18.196 Y72.238
X18.230 Y72.560
X18.196 Y72.882
X18.096 Y73.191
X17.934 Y73.471
X17.717 Y73.712
X17.455 Y73.903
X17.365 Y73.943
X17.365 Y76.347
X17.383 Y76.359
X17.530 Y76.523
X17.640 Y76.713
X17.707 Y76.922
X17.730 Y77.137
X17.730 Y78.143
X17.707 Y78.358
X17.640 Y78.567
X17.530 Y78.757
X17.383 Y78.921
X17.205 Y79.050
X17.005 Y79.139
X16.790 Y79.184
X16.570 Y79.184
G0  Z3.000
G0  X60.850 Y73.610
G0  Z0
G01 F50 Z-0.070
G01 F400 X60.850 Y71.978
X59.399 Y70.526
X59.306 Y70.423
X59.234 Y70.299
X59.190 Y70.163
X59.175 Y70.023
X59.175 Y67.503
X59.157 Y67.490
X59.010 Y67.327
X58.901 Y67.137
X58.833 Y66.928
X58.810 Y66.713
X58.810 Y65.707
X58.833 Y65.492
X58.901 Y65.283
X59.010 Y65.093
X59.157 Y64.930
X59.335 Y64.800
X59.535 Y64.711
X59.750 Y64.666
X59.970 Y64.666
X60.185 Y64.711
X60.385 Y64.800
X60.563 Y64.930
X60.710 Y65.093
X60.820 Y65.283
X60.887 Y65.492
X60.910 Y65.707
X60.910 Y66.713
X60.887 Y66.928
X60.820 Y67.137
X60.710 Y67.327
X60.563 Y67.490
X60.545 Y67.503
X60.545 Y69.737
X62.318 Y71.510
X63.950 Y71.510
X63.950 Y73.610
X60.850 Y73.610
G0  Z3.000
G0  X25.856 Y68.172
G0  Z0
G01 F50 Z-0.070
G01 F400 X27.824 Y68.172
X27.930 Y68.161
X28.016 Y68.135
X28.096 Y68.093
X28.166 Y68.035
X28.223 Y67.966
X28.266 Y67.885
X28.292 Y67.800
X28.301 Y67.707
X28.301 Y64.713
X28.292 Y64.621
X28.256 Y64.502
X28.252 Y64.465
X28.256 Y64.428
X28.267 Y64.393
X28.286 Y64.361
X28.308 Y64.336
X28.361 Y64.283
X28.575 Y63.963
X28.723 Y63.606
X28.798 Y63.228
X28.798 Y62.842
X28.723 Y62.464
X28.575 Y62.108
X28.361 Y61.787
X28.088 Y61.514
X27.767 Y61.299
X27.411 Y61.152
X27.032 Y61.076
X26.648 Y61.076
X26.270 Y61.152
X25.913 Y61.299
X25.592 Y61.514
X25.319 Y61.787
X25.105 Y62.108
X24.957 Y62.464
X24.882 Y62.842
X24.882 Y63.228
X24.957 Y63.606
X25.105 Y63.963
X25.319 Y64.283
X25.372 Y64.336
X25.394 Y64.361
X25.413 Y64.393
X25.424 Y64.428
X25.428 Y64.466
X25.423 Y64.507
X25.388 Y64.621
X25.379 Y64.713
X25.379 Y67.707
X25.388 Y67.800
X25.414 Y67.885
X25.457 Y67.965
X25.514 Y68.035
X25.584 Y68.093
X25.664 Y68.135
X25.750 Y68.161
X25.856 Y68.172
G0  Z3.000
G0  X25.790 Y67.760
G0  Z0
G01 F50 Z-0.070
G01 F400 X25.790 Y64.660
X26.155 Y64.660
X26.155 Y64.418
X26.065 Y64.378
X25.803 Y64.187
X25.586 Y63.946
X25.424 Y63.666
X25.324 Y63.357
X25.290 Y63.035
X25.324 Y62.713
X25.424 Y62.404
X25.586 Y62.124
X25.803 Y61.883
X26.065 Y61.692
X26.361 Y61.561
X26.678 Y61.493
X27.002 Y61.493
X27.319 Y61.561
X27.615 Y61.692
X27.877 Y61.883
X28.094 Y62.124
X28.256 Y62.404
X28.356 Y62.713
X28.390 Y63.035
X28.356 Y63.357
X28.256 Y63.666
X28.094 Y63.946
X27.877 Y64.187
X27.615 Y64.378
X27.525 Y64.418
X27.525 Y64.660
X27.890 Y64.660
X27.890 Y67.760
X25.790 Y67.760
G0  Z3.000
G0  X44.510 Y67.755
G0  Z0
G01 F50 Z-0.070
G01 F400 X44.295 Y67.709
X44.095 Y67.620
X43.917 Y67.490
X43.770 Y67.327
X43.660 Y67.137
X43.593 Y66.928
X43.570 Y66.713
X43.570 Y65.707
X43.593 Y65.492
X43.660 Y65.283
X43.770 Y65.093
X43.917 Y64.930
X43.935 Y64.917
X43.935 Y53.277
X43.950 Y53.138
X43.994 Y53.001
X44.066 Y52.877
X44.159 Y52.774
X50.282 Y46.650
X50.397 Y46.567
X50.528 Y46.508
X50.668 Y46.479
X52.214 Y46.479
X52.230 Y46.457
X52.393 Y46.310
X52.583 Y46.201
X52.792 Y46.133
X53.007 Y46.110
X54.013 Y46.110
X54.228 Y46.133
X54.437 Y46.201
X54.627 Y46.310
X54.791 Y46.457
X54.920 Y46.635
X55.009 Y46.835
X55.055 Y47.050
X55.055 Y47.270
X55.009 Y47.485
X54.920 Y47.685
X54.791 Y47.863
X54.627 Y48.010
X54.437 Y48.120
X54.228 Y48.187
X54.013 Y48.210
X53.007 Y48.210
X52.792 Y48.187
X52.583 Y48.120
X52.393 Y48.010
X52.230 Y47.863
X52.214 Y47.842
X51.026 Y47.842
X45.305 Y53.563
X45.305 Y64.917
X45.323 Y64.930
X45.470 Y65.093
X45.580 Y65.283
X45.647 Y65.492
X45.670 Y65.707
X45.670 Y66.713
X45.647 Y66.928
X45.580 Y67.137
X45.470 Y67.327
X45.323 Y67.490
X45.145 Y67.620
X44.945 Y67.709
X44.730 Y67.755
X44.510 Y67.755
G0  Z3.000
G0  X34.350 Y67.755
G0  Z0
G01 F50 Z-0.070
G01 F400 X34.135 Y67.709
X33.935 Y67.620
X33.757 Y67.490
X33.610 Y67.327
X33.501 Y67.137
X33.433 Y66.928
X33.410 Y66.713
X33.410 Y65.707
X33.433 Y65.492
X33.501 Y65.283
X33.610 Y65.093
X33.757 Y64.930
X33.935 Y64.800
X34.135 Y64.711
X34.350 Y64.666
X34.570 Y64.666
X34.785 Y64.711
X34.985 Y64.800
X35.163 Y64.930
X35.310 Y65.093
X35.419 Y65.283
X35.487 Y65.492
X35.510 Y65.707
X35.510 Y66.713
X35.487 Y66.928
X35.419 Y67.137
X35.310 Y67.327
X35.163 Y67.490
X34.985 Y67.620
X34.785 Y67.709
X34.570 Y67.755
X34.350 Y67.755
G0  Z3.000
G0  X31.810 Y67.755
G0  Z0
G01 F50 Z-0.070
G01 F400 X31.595 Y67.709
X31.395 Y67.620
X31.217 Y67.490
X31.070 Y67.327
X30.961 Y67.137
X30.893 Y66.928
X30.870 Y66.713
X30.870 Y65.707
X30.893 Y65.492
X30.961 Y65.283
X31.070 Y65.093
X31.217 Y64.930
X31.235 Y64.917
X31.235 Y64.418
X31.145 Y64.378
X30.883 Y64.187
X30.666 Y63.946
X30.504 Y63.666
X30.404 Y63.357
X30.370 Y63.035
X30.404 Y62.713
X30.504 Y62.404
X30.666 Y62.124
X30.883 Y61.883
X31.145 Y61.692
X31.441 Y61.561
X31.758 Y61.493
X32.082 Y61.493
X32.399 Y61.561
X32.695 Y61.692
X32.957 Y61.883
X33.174 Y62.124
X33.336 Y62.404
X33.436 Y62.713
X33.470 Y63.035
X33.436 Y63.357
X33.336 Y63.666
X33.174 Y63.946
X32.957 Y64.187
X32.695 Y64.378
X32.605 Y64.418
X32.605 Y64.917
X32.623 Y64.930
X32.770 Y65.093
X32.880 Y65.283
X32.947 Y65.492
X32.970 Y65.707
X32.970 Y66.713
X32.947 Y66.928
X32.880 Y67.137
X32.770 Y67.327
X32.623 Y67.490
X32.445 Y67.620
X32.245 Y67.709
X32.030 Y67.755
X31.810 Y67.755
G0  Z3.000
G0  X57.210 Y67.755
G0  Z0
G01 F50 Z-0.070
G01 F400 X56.995 Y67.709
X56.795 Y67.620
X56.617 Y67.490
X56.470 Y67.327
X56.361 Y67.137
X56.293 Y66.928
X56.270 Y66.713
X56.270 Y65.707
X56.293 Y65.492
X56.361 Y65.283
X56.470 Y65.093
X56.617 Y64.930
X56.795 Y64.800
X56.995 Y64.711
X57.210 Y64.666
X57.430 Y64.666
X57.645 Y64.711
X57.845 Y64.800
X58.023 Y64.930
X58.170 Y65.093
X58.280 Y65.283
X58.347 Y65.492
X58.370 Y65.707
X58.370 Y66.713
X58.347 Y66.928
X58.280 Y67.137
X58.170 Y67.327
X58.023 Y67.490
X57.845 Y67.620
X57.645 Y67.709
X57.430 Y67.755
X57.210 Y67.755
G0  Z3.000
G0  X62.290 Y67.755
G0  Z0
G01 F50 Z-0.070
G01 F400 X62.075 Y67.709
X61.875 Y67.620
X61.697 Y67.490
X61.550 Y67.327
X61.441 Y67.137
X61.373 Y66.928
X61.350 Y66.713
X61.350 Y65.707
X61.373 Y65.492
X61.441 Y65.283
X61.550 Y65.093
X61.697 Y64.930
X61.715 Y64.917
X61.715 Y54.305
X57.063 Y49.654
X55.346 Y49.654
X55.018 Y49.982
X55.009 Y50.025
X54.920 Y50.225
X54.791 Y50.403
X54.627 Y50.550
X54.437 Y50.660
X54.228 Y50.727
X54.013 Y50.750
X53.007 Y50.750
X52.792 Y50.727
X52.583 Y50.660
X52.393 Y50.550
X52.230 Y50.403
X52.100 Y50.225
X52.011 Y50.025
X51.966 Y49.810
X51.966 Y49.590
X52.011 Y49.375
X52.100 Y49.175
X52.230 Y48.997
X52.393 Y48.850
X52.583 Y48.741
X52.792 Y48.673
X53.007 Y48.650
X54.013 Y48.650
X54.228 Y48.673
X54.352 Y48.713
X54.602 Y48.462
X54.717 Y48.379
X54.848 Y48.320
X54.988 Y48.291
X57.421 Y48.291
X57.561 Y48.320
X57.692 Y48.379
X57.807 Y48.462
X62.861 Y53.516
X62.954 Y53.620
X63.026 Y53.744
X63.070 Y53.880
X63.085 Y54.020
X63.085 Y64.917
X63.103 Y64.930
X63.250 Y65.093
X63.360 Y65.283
X63.427 Y65.492
X63.450 Y65.707
X63.450 Y66.713
X63.427 Y66.928
X63.360 Y67.137
X63.250 Y67.327
X63.103 Y67.490
X62.925 Y67.620
X62.725 Y67.709
X62.510 Y67.755
X62.290 Y67.755
G0  Z3.000
G0  X49.590 Y67.755
G0  Z0
G01 F50 Z-0.070
G01 F400 X49.375 Y67.709
X49.175 Y67.620
X48.997 Y67.490
X48.850 Y67.327
X48.741 Y67.137
X48.673 Y66.928
X48.650 Y66.713
X48.650 Y65.707
X48.673 Y65.492
X48.741 Y65.283
X48.850 Y65.093
X48.997 Y64.930
X49.015 Y64.917
X49.015 Y63.042
X49.030 Y62.902
X49.074 Y62.766
X49.146 Y62.641
X49.239 Y62.538
X51.966 Y59.811
X51.966 Y59.750
X52.011 Y59.535
X52.100 Y59.335
X52.230 Y59.157
X52.393 Y59.010
X52.583 Y58.901
X52.792 Y58.833
X53.007 Y58.810
X54.013 Y58.810
X54.228 Y58.833
X54.437 Y58.901
X54.627 Y59.010
X54.791 Y59.157
X54.920 Y59.335
X55.009 Y59.535
X55.055 Y59.750
X55.055 Y59.970
X55.009 Y60.185
X54.920 Y60.385
X54.791 Y60.563
X54.627 Y60.710
X54.437 Y60.820
X54.228 Y60.887
X54.013 Y60.910
X53.007 Y60.910
X52.821 Y60.890
X50.385 Y63.327
X50.385 Y64.917
X50.403 Y64.930
X50.550 Y65.093
X50.660 Y65.283
X50.727 Y65.492
X50.750 Y65.707
X50.750 Y66.713
X50.727 Y66.928
X50.660 Y67.137
X50.550 Y67.327
X50.403 Y67.490
X50.225 Y67.620
X50.025 Y67.709
X49.810 Y67.755
X49.590 Y67.755
G0  Z3.000
G0  X47.050 Y67.755
G0  Z0
G01 F50 Z-0.070
G01 F400 X46.835 Y67.709
X46.635 Y67.620
X46.457 Y67.490
X46.310 Y67.327
X46.201 Y67.137
X46.133 Y66.928
X46.110 Y66.713
X46.110 Y65.707
X46.133 Y65.492
X46.201 Y65.283
X46.310 Y65.093
X46.457 Y64.930
X46.475 Y64.917
X46.475 Y58.357
X46.490 Y58.218
X46.534 Y58.081
X46.606 Y57.957
X46.699 Y57.854
X50.282 Y54.270
X50.397 Y54.187
X50.528 Y54.128
X50.668 Y54.099
X52.214 Y54.099
X52.230 Y54.077
X52.393 Y53.930
X52.583 Y53.821
X52.792 Y53.753
X53.007 Y53.730
X54.013 Y53.730
X54.228 Y53.753
X54.437 Y53.821
X54.627 Y53.930
X54.791 Y54.077
X54.920 Y54.255
X55.009 Y54.455
X55.055 Y54.670
X55.055 Y54.890
X55.009 Y55.105
X54.920 Y55.305
X54.791 Y55.483
X54.627 Y55.630
X54.437 Y55.739
X54.228 Y55.807
X54.013 Y55.830
X53.007 Y55.830
X52.792 Y55.807
X52.583 Y55.739
X52.393 Y55.630
X52.230 Y55.483
X52.214 Y55.462
X51.026 Y55.462
X47.845 Y58.643
X47.845 Y64.917
X47.863 Y64.930
X48.010 Y65.093
X48.120 Y65.283
X48.187 Y65.492
X48.210 Y65.707
X48.210 Y66.713
X48.187 Y66.928
X48.120 Y67.137
X48.010 Y67.327
X47.863 Y67.490
X47.685 Y67.620
X47.485 Y67.709
X47.270 Y67.755
X47.050 Y67.755
G0  Z3.000
G0  X54.670 Y67.755
G0  Z0
G01 F50 Z-0.070
G01 F400 X54.455 Y67.709
X54.255 Y67.620
X54.077 Y67.490
X53.930 Y67.327
X53.821 Y67.137
X53.753 Y66.928
X53.730 Y66.713
X53.730 Y65.707
X53.753 Y65.492
X53.821 Y65.283
X53.930 Y65.093
X54.077 Y64.930
X54.255 Y64.800
X54.455 Y64.711
X54.670 Y64.666
X54.890 Y64.666
X55.105 Y64.711
X55.305 Y64.800
X55.483 Y64.930
X55.630 Y65.093
X55.739 Y65.283
X55.807 Y65.492
X55.830 Y65.707
X55.830 Y66.713
X55.807 Y66.928
X55.739 Y67.137
X55.630 Y67.327
X55.483 Y67.490
X55.305 Y67.620
X55.105 Y67.709
X54.890 Y67.755
X54.670 Y67.755
G0  Z3.000
G0  X50.952 Y64.856
G0  Z0
G01 F50 Z-0.070
G01 F400 X50.915 Y64.849
X50.881 Y64.834
X50.851 Y64.812
X50.827 Y64.784
X50.808 Y64.752
X50.797 Y64.717
X50.793 Y64.683
X50.793 Y63.568
X50.797 Y63.533
X50.808 Y63.498
X50.827 Y63.466
X50.849 Y63.441
X51.381 Y62.909
X51.410 Y62.888
X51.444 Y62.873
X51.480 Y62.865
X51.517 Y62.865
X51.554 Y62.873
X51.588 Y62.888
X51.617 Y62.910
X51.642 Y62.937
X51.659 Y62.965
X51.791 Y63.214
X51.973 Y63.436
X52.196 Y63.618
X52.449 Y63.754
X52.724 Y63.837
X52.946 Y63.859
X54.074 Y63.859
X54.296 Y63.837
X54.571 Y63.754
X54.824 Y63.618
X55.047 Y63.436
X55.229 Y63.214
X55.364 Y62.960
X55.448 Y62.686
X55.476 Y62.400
X55.448 Y62.114
X55.364 Y61.840
X55.229 Y61.586
X55.047 Y61.364
X54.920 Y61.261
X54.896 Y61.234
X54.878 Y61.202
X54.866 Y61.167
X54.863 Y61.130
X54.866 Y61.093
X54.878 Y61.058
X54.896 Y61.026
X54.920 Y60.999
X55.047 Y60.896
X55.229 Y60.674
X55.364 Y60.420
X55.448 Y60.146
X55.476 Y59.860
X55.448 Y59.574
X55.364 Y59.300
X55.229 Y59.046
X55.046 Y58.824
X54.825 Y58.642
X54.571 Y58.506
X54.296 Y58.423
X54.074 Y58.401
X52.946 Y58.401
X52.724 Y58.423
X52.449 Y58.506
X52.196 Y58.642
X51.973 Y58.825
X51.791 Y59.046
X51.656 Y59.299
X51.570 Y59.592
X51.559 Y59.623
X51.541 Y59.655
X51.519 Y59.679
X48.965 Y62.234
X48.923 Y62.268
X48.786 Y62.434
X48.685 Y62.625
X48.622 Y62.830
X48.607 Y62.987
X48.603 Y63.019
X48.592 Y63.054
X48.573 Y63.086
X48.549 Y63.114
X48.543 Y63.117
X48.543 Y63.158
X48.412 Y63.158
X48.375 Y63.150
X48.341 Y63.135
X48.311 Y63.114
X48.287 Y63.086
X48.268 Y63.054
X48.257 Y63.019
X48.253 Y62.984
X48.253 Y58.883
X48.257 Y58.849
X48.268 Y58.814
X48.287 Y58.782
X48.309 Y58.757
X51.149 Y55.918
X51.177 Y55.897
X51.211 Y55.881
X51.248 Y55.874
X51.999 Y55.874
X52.035 Y55.881
X52.069 Y55.897
X52.096 Y55.916
X52.196 Y55.998
X52.449 Y56.134
X52.724 Y56.217
X52.946 Y56.239
X54.074 Y56.239
X54.296 Y56.217
X54.571 Y56.134
X54.824 Y55.998
X55.047 Y55.816
X55.229 Y55.594
X55.364 Y55.340
X55.448 Y55.066
X55.476 Y54.780
X55.448 Y54.495
X55.407 Y54.360
X55.403 Y54.323
X55.407 Y54.287
X55.418 Y54.251
X55.437 Y54.219
X55.461 Y54.192
X55.491 Y54.170
X55.525 Y54.155
X55.562 Y54.147
X55.598 Y54.147
X55.858 Y54.199
X56.242 Y54.199
X56.620 Y54.123
X56.977 Y53.976
X57.298 Y53.761
X57.571 Y53.488
X57.785 Y53.168
X57.933 Y52.811
X58.008 Y52.433
X58.008 Y52.047
X57.933 Y51.669
X57.873 Y51.523
X57.862 Y51.491
X57.858 Y51.454
X57.862 Y51.417
X57.873 Y51.382
X57.892 Y51.350
X57.917 Y51.323
X57.947 Y51.301
X57.981 Y51.286
X58.017 Y51.278
X58.054 Y51.278
X58.090 Y51.286
X58.124 Y51.301
X58.153 Y51.322
X61.251 Y54.420
X61.273 Y54.445
X61.292 Y54.477
X61.303 Y54.512
X61.307 Y54.546
X61.307 Y64.683
X61.303 Y64.717
X61.292 Y64.752
X61.273 Y64.784
X61.249 Y64.812
X61.219 Y64.834
X61.185 Y64.849
X61.149 Y64.856
X61.111 Y64.856
X61.075 Y64.849
X61.041 Y64.834
X61.011 Y64.812
X60.989 Y64.788
X60.896 Y64.674
X60.675 Y64.492
X60.421 Y64.356
X60.146 Y64.273
X59.860 Y64.245
X59.574 Y64.273
X59.299 Y64.356
X59.046 Y64.492
X58.823 Y64.675
X58.731 Y64.788
X58.709 Y64.812
X58.679 Y64.834
X58.645 Y64.849
X58.608 Y64.856
X58.572 Y64.856
X58.535 Y64.849
X58.501 Y64.834
X58.471 Y64.812
X58.449 Y64.788
X58.357 Y64.674
X58.134 Y64.492
X57.881 Y64.356
X57.607 Y64.273
X57.320 Y64.245
X57.034 Y64.273
X56.759 Y64.356
X56.506 Y64.492
X56.283 Y64.675
X56.191 Y64.788
X56.169 Y64.812
X56.139 Y64.834
X56.105 Y64.849
X56.069 Y64.856
X56.032 Y64.856
X55.995 Y64.849
X55.961 Y64.834
X55.931 Y64.812
X55.909 Y64.788
X55.816 Y64.674
X55.595 Y64.492
X55.341 Y64.356
X55.066 Y64.273
X54.780 Y64.245
X54.494 Y64.273
X54.219 Y64.356
X53.966 Y64.492
X53.743 Y64.675
X53.651 Y64.788
X53.629 Y64.812
X53.599 Y64.834
X53.565 Y64.849
X53.529 Y64.856
X53.492 Y64.856
X53.455 Y64.849
X53.421 Y64.834
X53.391 Y64.812
X53.369 Y64.788
X53.277 Y64.674
X53.054 Y64.492
X52.801 Y64.356
X52.527 Y64.273
X52.240 Y64.245
X51.954 Y64.273
X51.679 Y64.356
X51.426 Y64.492
X51.203 Y64.675
X51.111 Y64.788
X51.089 Y64.812
X51.059 Y64.834
X51.025 Y64.849
X50.989 Y64.856
X50.952 Y64.856
G0  Z3.000
G0  X53.007 Y63.450
G0  Z0
G01 F50 Z-0.070
G01 F400 X52.792 Y63.427
X52.583 Y63.360
X52.393 Y63.250
X52.230 Y63.103
X52.100 Y62.925
X52.011 Y62.725
X51.966 Y62.510
X51.966 Y62.290
X52.011 Y62.075
X52.100 Y61.875
X52.230 Y61.697
X52.393 Y61.550
X52.583 Y61.441
X52.792 Y61.373
X53.007 Y61.350
X54.013 Y61.350
X54.228 Y61.373
X54.437 Y61.441
X54.627 Y61.550
X54.791 Y61.697
X54.920 Y61.875
X55.009 Y62.075
X55.055 Y62.290
X55.055 Y62.510
X55.009 Y62.725
X54.920 Y62.925
X54.791 Y63.103
X54.627 Y63.250
X54.437 Y63.360
X54.228 Y63.427
X54.013 Y63.450
X53.007 Y63.450
G0  Z3.000
G0  X6.306 Y54.972
G0  Z0
G01 F50 Z-0.070
G01 F400 X9.274 Y54.972
X9.380 Y54.961
X9.466 Y54.935
X9.546 Y54.893
X9.616 Y54.835
X9.673 Y54.765
X9.706 Y54.704
X9.722 Y54.676
X9.747 Y54.648
X9.777 Y54.627
X9.811 Y54.611
X9.847 Y54.604
X10.513 Y54.604
X10.560 Y54.608
X10.604 Y54.604
X10.775 Y54.587
X10.811 Y54.576
X10.981 Y54.525
X11.171 Y54.423
X11.337 Y54.286
X11.362 Y54.257
X11.381 Y54.235
X11.700 Y53.916
X11.742 Y53.882
X11.879 Y53.715
X11.980 Y53.525
X12.043 Y53.319
X12.058 Y53.163
X12.058 Y53.163
X12.063 Y53.099
X12.058 Y53.045
X12.058 Y42.545
X12.064 Y42.485
X12.043 Y42.271
X11.997 Y42.121
X11.980 Y42.065
X11.879 Y41.875
X11.742 Y41.709
X11.700 Y41.674
X11.381 Y41.355
X11.361 Y41.333
X11.337 Y41.304
X11.171 Y41.167
X10.980 Y41.065
X10.813 Y41.015
X10.762 Y41.002
X10.604 Y40.986
X10.560 Y40.982
X10.513 Y40.986
X9.910 Y40.986
X9.873 Y40.979
X9.839 Y40.964
X9.809 Y40.942
X9.785 Y40.914
X9.766 Y40.882
X9.755 Y40.847
X9.751 Y40.813
X9.751 Y40.583
X9.742 Y40.491
X9.716 Y40.405
X9.673 Y40.324
X9.616 Y40.255
X9.546 Y40.198
X9.466 Y40.155
X9.380 Y40.129
X9.274 Y40.118
X9.042 Y40.118
X9.005 Y40.111
X8.971 Y40.096
X8.941 Y40.074
X8.917 Y40.046
X8.898 Y40.014
X8.887 Y39.979
X8.883 Y39.945
X8.883 Y33.556
X8.887 Y33.521
X8.898 Y33.486
X8.917 Y33.454
X8.941 Y33.426
X8.971 Y33.404
X9.005 Y33.389
X9.042 Y33.382
X9.274 Y33.382
X9.380 Y33.371
X9.466 Y33.345
X9.546 Y33.303
X9.616 Y33.245
X9.673 Y33.175
X9.706 Y33.114
X9.722 Y33.086
X9.747 Y33.058
X9.777 Y33.037
X9.811 Y33.021
X9.847 Y33.014
X15.834 Y33.014
X15.870 Y33.021
X15.904 Y33.037
X15.934 Y33.058
X15.958 Y33.086
X15.977 Y33.118
X15.988 Y33.153
X15.992 Y33.187
X15.992 Y33.383
X16.067 Y33.761
X16.215 Y34.117
X16.429 Y34.438
X16.702 Y34.711
X17.023 Y34.926
X17.380 Y35.074
X17.758 Y35.149
X18.142 Y35.149
X18.521 Y35.074
X18.877 Y34.926
X19.198 Y34.711
X19.471 Y34.438
X19.685 Y34.118
X19.833 Y33.761
X19.908 Y33.383
X19.908 Y32.997
X19.833 Y32.619
X19.685 Y32.263
X19.471 Y31.942
X19.198 Y31.669
X18.867 Y31.450
X18.841 Y31.439
X18.811 Y31.417
X18.787 Y31.389
X18.768 Y31.357
X18.757 Y31.322
X18.753 Y31.285
X18.757 Y31.248
X18.768 Y31.213
X18.787 Y31.181
X18.811 Y31.153
X18.841 Y31.131
X18.876 Y31.116
X19.198 Y30.901
X19.471 Y30.628
X19.685 Y30.308
X19.833 Y29.951
X19.908 Y29.573
X19.908 Y29.187
X19.833 Y28.809
X19.685 Y28.453
X19.471 Y28.132
X19.198 Y27.859
X18.877 Y27.644
X18.521 Y27.497
X18.142 Y27.421
X17.758 Y27.421
X17.380 Y27.497
X17.023 Y27.644
X16.702 Y27.859
X16.429 Y28.132
X16.215 Y28.453
X16.067 Y28.809
X15.992 Y29.187
X15.992 Y29.573
X16.070 Y29.967
X16.074 Y30.001
X16.070 Y30.038
X16.059 Y30.073
X16.041 Y30.103
X15.551 Y30.756
X15.529 Y30.782
X15.499 Y30.804
X15.465 Y30.819
X15.429 Y30.826
X13.492 Y30.826
X13.429 Y30.854
X13.112 Y30.922
X12.788 Y30.922
X12.471 Y30.854
X12.408 Y30.826
X9.847 Y30.826
X9.811 Y30.819
X9.777 Y30.804
X9.747 Y30.782
X9.722 Y30.754
X9.706 Y30.726
X9.673 Y30.665
X9.616 Y30.595
X9.546 Y30.538
X9.466 Y30.495
X9.380 Y30.469
X9.274 Y30.458
X6.306 Y30.458
X6.200 Y30.469
X6.114 Y30.495
X6.034 Y30.538
X5.964 Y30.595
X5.907 Y30.665
X5.864 Y30.745
X5.838 Y30.831
X5.829 Y30.923
X5.829 Y32.917
X5.838 Y33.010
X5.864 Y33.095
X5.907 Y33.176
X5.964 Y33.245
X6.034 Y33.303
X6.114 Y33.345
X6.200 Y33.371
X6.306 Y33.382
X6.538 Y33.382
X6.575 Y33.389
X6.609 Y33.404
X6.639 Y33.426
X6.663 Y33.454
X6.682 Y33.486
X6.693 Y33.521
X6.697 Y33.556
X6.697 Y39.945
X6.693 Y39.979
X6.682 Y40.014
X6.663 Y40.046
X6.639 Y40.074
X6.609 Y40.096
X6.575 Y40.111
X6.538 Y40.118
X6.306 Y40.118
X6.200 Y40.129
X6.114 Y40.155
X6.034 Y40.198
X5.964 Y40.255
X5.907 Y40.325
X5.864 Y40.405
X5.838 Y40.491
X5.829 Y40.583
X5.829 Y43.577
X5.838 Y43.669
X5.864 Y43.755
X5.907 Y43.836
X5.964 Y43.905
X6.034 Y43.962
X6.114 Y44.005
X6.200 Y44.031
X6.306 Y44.042
X9.274 Y44.042
X9.380 Y44.031
X9.466 Y44.005
X9.546 Y43.962
X9.580 Y43.935
X9.606 Y43.916
X9.640 Y43.901
X9.677 Y43.893
X9.713 Y43.893
X9.750 Y43.901
X9.784 Y43.916
X9.814 Y43.937
X9.838 Y43.965
X9.857 Y43.997
X9.868 Y44.032
X9.872 Y44.067
X9.872 Y52.024
X9.868 Y52.058
X9.857 Y52.093
X9.838 Y52.125
X9.814 Y52.153
X9.784 Y52.174
X9.750 Y52.190
X9.713 Y52.197
X9.677 Y52.197
X9.640 Y52.190
X9.606 Y52.174
X9.579 Y52.155
X9.546 Y52.128
X9.466 Y52.085
X9.380 Y52.059
X9.274 Y52.048
X6.306 Y52.048
X6.200 Y52.059
X6.114 Y52.085
X6.034 Y52.128
X5.964 Y52.185
X5.907 Y52.255
X5.864 Y52.335
X5.838 Y52.421
X5.829 Y52.513
X5.829 Y54.507
X5.838 Y54.600
X5.864 Y54.685
X5.907 Y54.766
X5.964 Y54.835
X6.034 Y54.893
X6.114 Y54.935
X6.200 Y54.961
X6.306 Y54.972
G0  Z3.000
G0  X6.240 Y54.560
G0  Z0
G01 F50 Z-0.070
G01 F400 X6.240 Y52.460
X9.340 Y52.460
X9.340 Y52.829
X10.274 Y52.829
X10.280 Y52.823
X10.280 Y42.768
X10.274 Y42.762
X9.340 Y42.762
X9.340 Y43.630
X6.240 Y43.630
X6.240 Y40.530
X7.105 Y40.530
X7.105 Y32.970
X6.240 Y32.970
X6.240 Y30.870
X9.340 Y30.870
X9.340 Y31.239
X15.700 Y31.239
X16.572 Y30.076
X16.534 Y30.011
X16.434 Y29.702
X16.400 Y29.380
X16.434 Y29.058
X16.534 Y28.749
X16.696 Y28.469
X16.913 Y28.228
X17.175 Y28.037
X17.471 Y27.906
X17.788 Y27.838
X18.112 Y27.838
X18.429 Y27.906
X18.725 Y28.037
X18.987 Y28.228
X19.204 Y28.469
X19.366 Y28.749
X19.466 Y29.058
X19.500 Y29.380
X19.466 Y29.702
X19.366 Y30.011
X19.204 Y30.291
X18.987 Y30.532
X18.725 Y30.723
X18.429 Y30.854
X18.112 Y30.922
X17.788 Y30.922
X17.669 Y30.897
X17.221 Y31.494
X17.452 Y31.724
X17.471 Y31.716
X17.788 Y31.648
X18.112 Y31.648
X18.429 Y31.716
X18.725 Y31.847
X18.987 Y32.038
X19.204 Y32.279
X19.366 Y32.559
X19.466 Y32.868
X19.500 Y33.190
X19.466 Y33.512
X19.366 Y33.821
X19.204 Y34.101
X18.987 Y34.342
X18.725 Y34.533
X18.429 Y34.664
X18.112 Y34.732
X17.788 Y34.732
X17.471 Y34.664
X17.175 Y34.533
X16.913 Y34.342
X16.696 Y34.101
X16.534 Y33.821
X16.434 Y33.512
X16.400 Y33.190
X16.434 Y32.868
X16.489 Y32.697
X16.331 Y32.539
X16.257 Y32.572
X16.117 Y32.602
X9.340 Y32.602
X9.340 Y32.970
X8.475 Y32.970
X8.475 Y40.530
X9.340 Y40.530
X9.340 Y41.398
X10.632 Y41.398
X10.772 Y41.428
X10.903 Y41.486
X11.018 Y41.570
X11.426 Y41.979
X11.519 Y42.082
X11.591 Y42.206
X11.635 Y42.343
X11.650 Y42.482
X11.650 Y53.108
X11.635 Y53.248
X11.591 Y53.384
X11.519 Y53.508
X11.426 Y53.611
X11.018 Y54.020
X10.903 Y54.104
X10.772 Y54.162
X10.632 Y54.192
X9.340 Y54.192
X9.340 Y54.560
X6.240 Y54.560
G0  Z3.000
G0  X50.173 Y53.782
G0  Z0
G01 F50 Z-0.070
G01 F400 X49.856 Y53.714
X49.560 Y53.583
X49.298 Y53.392
X49.081 Y53.151
X48.919 Y52.871
X48.819 Y52.562
X48.785 Y52.240
X48.819 Y51.918
X48.919 Y51.609
X49.081 Y51.329
X49.298 Y51.088
X49.560 Y50.897
X49.856 Y50.766
X50.173 Y50.698
X50.497 Y50.698
X50.814 Y50.766
X51.110 Y50.897
X51.372 Y51.088
X51.589 Y51.329
X51.722 Y51.559
X52.214 Y51.559
X52.230 Y51.537
X52.393 Y51.390
X52.583 Y51.281
X52.792 Y51.213
X53.007 Y51.190
X54.013 Y51.190
X54.228 Y51.213
X54.437 Y51.281
X54.627 Y51.390
X54.715 Y51.469
X54.796 Y51.329
X55.013 Y51.088
X55.275 Y50.897
X55.571 Y50.766
X55.888 Y50.698
X56.212 Y50.698
X56.529 Y50.766
X56.825 Y50.897
X57.087 Y51.088
X57.304 Y51.329
X57.466 Y51.609
X57.566 Y51.918
X57.600 Y52.240
X57.566 Y52.562
X57.466 Y52.871
X57.304 Y53.151
X57.087 Y53.392
X56.825 Y53.583
X56.529 Y53.714
X56.212 Y53.782
X55.888 Y53.782
X55.571 Y53.714
X55.275 Y53.583
X55.013 Y53.392
X54.796 Y53.151
X54.715 Y53.011
X54.627 Y53.090
X54.437 Y53.200
X54.228 Y53.267
X54.013 Y53.290
X53.007 Y53.290
X52.792 Y53.267
X52.583 Y53.200
X52.393 Y53.090
X52.230 Y52.943
X52.214 Y52.922
X51.722 Y52.922
X51.589 Y53.151
X51.372 Y53.392
X51.110 Y53.583
X50.814 Y53.714
X50.497 Y53.782
X50.173 Y53.782
G0  Z3.000
G0  X51.960 Y45.670
G0  Z0
G01 F50 Z-0.070
G01 F400 X51.960 Y43.570
X55.060 Y43.570
X55.060 Y45.670
X51.960 Y45.670
G0  Z3.000
G0  X39.378 Y45.527
G0  Z0
G01 F50 Z-0.070
G01 F400 X39.061 Y45.459
X38.765 Y45.328
X38.503 Y45.137
X38.286 Y44.896
X38.124 Y44.616
X38.024 Y44.307
X37.990 Y43.985
X38.024 Y43.663
X38.124 Y43.354
X38.286 Y43.074
X38.503 Y42.833
X38.765 Y42.642
X38.855 Y42.602
X38.855 Y42.103
X38.837 Y42.090
X38.690 Y41.927
X38.581 Y41.737
X38.513 Y41.528
X38.490 Y41.313
X38.490 Y40.307
X38.513 Y40.092
X38.581 Y39.883
X38.690 Y39.693
X38.837 Y39.529
X39.015 Y39.400
X39.215 Y39.311
X39.430 Y39.266
X39.650 Y39.266
X39.865 Y39.311
X40.065 Y39.400
X40.243 Y39.529
X40.390 Y39.693
X40.500 Y39.883
X40.567 Y40.092
X40.590 Y40.307
X40.590 Y41.313
X40.567 Y41.528
X40.500 Y41.737
X40.390 Y41.927
X40.243 Y42.090
X40.225 Y42.103
X40.225 Y42.602
X40.315 Y42.642
X40.577 Y42.833
X40.794 Y43.074
X40.956 Y43.354
X41.056 Y43.663
X41.090 Y43.985
X41.056 Y44.307
X40.956 Y44.616
X40.794 Y44.896
X40.577 Y45.137
X40.315 Y45.328
X40.019 Y45.459
X39.702 Y45.527
X39.378 Y45.527
G0  Z3.000
G0  X46.998 Y45.527
G0  Z0
G01 F50 Z-0.070
G01 F400 X46.681 Y45.459
X46.385 Y45.328
X46.123 Y45.137
X45.906 Y44.896
X45.744 Y44.616
X45.644 Y44.307
X45.610 Y43.985
X45.644 Y43.663
X45.744 Y43.354
X45.906 Y43.074
X46.123 Y42.833
X46.385 Y42.642
X46.475 Y42.602
X46.475 Y42.103
X46.457 Y42.090
X46.310 Y41.927
X46.201 Y41.737
X46.133 Y41.528
X46.110 Y41.313
X46.110 Y40.307
X46.133 Y40.092
X46.201 Y39.883
X46.310 Y39.693
X46.457 Y39.529
X46.635 Y39.400
X46.835 Y39.311
X47.050 Y39.266
X47.270 Y39.266
X47.485 Y39.311
X47.685 Y39.400
X47.863 Y39.529
X48.010 Y39.693
X48.120 Y39.883
X48.187 Y40.092
X48.210 Y40.307
X48.210 Y41.313
X48.187 Y41.528
X48.120 Y41.737
X48.010 Y41.927
X47.863 Y42.090
X47.845 Y42.103
X47.845 Y42.602
X47.935 Y42.642
X48.197 Y42.833
X48.414 Y43.074
X48.576 Y43.354
X48.676 Y43.663
X48.710 Y43.985
X48.676 Y44.307
X48.576 Y44.616
X48.414 Y44.896
X48.197 Y45.137
X47.935 Y45.328
X47.639 Y45.459
X47.322 Y45.527
X46.998 Y45.527
G0  Z3.000
G0  X25.856 Y42.772
G0  Z0
G01 F50 Z-0.070
G01 F400 X27.824 Y42.772
X27.930 Y42.761
X28.017 Y42.735
X28.096 Y42.693
X28.166 Y42.635
X28.223 Y42.566
X28.266 Y42.485
X28.292 Y42.400
X28.301 Y42.307
X28.301 Y39.313
X28.292 Y39.221
X28.266 Y39.134
X28.223 Y39.054
X28.166 Y38.985
X28.096 Y38.928
X28.017 Y38.885
X27.930 Y38.859
X27.824 Y38.848
X25.856 Y38.848
X25.750 Y38.859
X25.664 Y38.885
X25.584 Y38.928
X25.514 Y38.985
X25.457 Y39.055
X25.414 Y39.135
X25.388 Y39.221
X25.379 Y39.313
X25.379 Y42.307
X25.388 Y42.400
X25.414 Y42.485
X25.457 Y42.566
X25.514 Y42.635
X25.584 Y42.693
X25.664 Y42.735
X25.750 Y42.761
X25.856 Y42.772
G0  Z3.000
G0  X25.790 Y42.360
G0  Z0
G01 F50 Z-0.070
G01 F400 X25.790 Y39.260
X27.890 Y39.260
X27.890 Y42.360
X25.790 Y42.360
G0  Z3.000
G0  X36.890 Y42.355
G0  Z0
G01 F50 Z-0.070
G01 F400 X36.675 Y42.309
X36.475 Y42.220
X36.297 Y42.090
X36.150 Y41.927
X36.041 Y41.737
X35.973 Y41.528
X35.950 Y41.313
X35.950 Y40.307
X35.973 Y40.092
X36.041 Y39.883
X36.150 Y39.693
X36.297 Y39.529
X36.315 Y39.517
X36.315 Y38.432
X36.219 Y38.266
X36.119 Y37.957
X36.085 Y37.635
X36.119 Y37.313
X36.219 Y37.004
X36.381 Y36.724
X36.598 Y36.483
X36.860 Y36.292
X37.156 Y36.161
X37.473 Y36.093
X37.797 Y36.093
X38.114 Y36.161
X38.410 Y36.292
X38.672 Y36.483
X38.889 Y36.724
X39.051 Y37.004
X39.151 Y37.313
X39.185 Y37.635
X39.151 Y37.957
X39.051 Y38.266
X38.889 Y38.546
X38.672 Y38.787
X38.410 Y38.978
X38.114 Y39.109
X37.797 Y39.177
X37.685 Y39.177
X37.685 Y39.517
X37.703 Y39.529
X37.850 Y39.693
X37.959 Y39.883
X38.027 Y40.092
X38.050 Y40.307
X38.050 Y41.313
X38.027 Y41.528
X37.959 Y41.737
X37.850 Y41.927
X37.703 Y42.090
X37.525 Y42.220
X37.325 Y42.309
X37.110 Y42.355
X36.890 Y42.355
G0  Z3.000
G0  X34.350 Y42.355
G0  Z0
G01 F50 Z-0.070
G01 F400 X34.135 Y42.309
X33.935 Y42.220
X33.757 Y42.090
X33.610 Y41.927
X33.501 Y41.737
X33.433 Y41.528
X33.410 Y41.313
X33.410 Y40.307
X33.433 Y40.092
X33.501 Y39.883
X33.610 Y39.693
X33.757 Y39.529
X33.775 Y39.517
X33.775 Y39.051
X33.610 Y38.978
X33.348 Y38.787
X33.131 Y38.546
X32.969 Y38.266
X32.869 Y37.957
X32.835 Y37.635
X32.869 Y37.313
X32.969 Y37.004
X33.131 Y36.724
X33.348 Y36.483
X33.610 Y36.292
X33.906 Y36.161
X34.223 Y36.093
X34.547 Y36.093
X34.864 Y36.161
X35.160 Y36.292
X35.422 Y36.483
X35.639 Y36.724
X35.801 Y37.004
X35.901 Y37.313
X35.935 Y37.635
X35.901 Y37.957
X35.801 Y38.266
X35.639 Y38.546
X35.422 Y38.787
X35.160 Y38.978
X35.145 Y38.984
X35.145 Y39.517
X35.163 Y39.529
X35.310 Y39.693
X35.419 Y39.883
X35.487 Y40.092
X35.510 Y40.307
X35.510 Y41.313
X35.487 Y41.528
X35.419 Y41.737
X35.310 Y41.927
X35.163 Y42.090
X34.985 Y42.220
X34.785 Y42.309
X34.570 Y42.355
X34.350 Y42.355
G0  Z3.000
G0  X41.970 Y42.355
G0  Z0
G01 F50 Z-0.070
G01 F400 X41.755 Y42.309
X41.555 Y42.220
X41.377 Y42.090
X41.230 Y41.927
X41.120 Y41.737
X41.053 Y41.528
X41.030 Y41.313
X41.030 Y40.307
X41.053 Y40.092
X41.120 Y39.883
X41.230 Y39.693
X41.377 Y39.529
X41.395 Y39.517
X41.395 Y39.093
X41.305 Y39.053
X41.043 Y38.862
X40.826 Y38.621
X40.664 Y38.341
X40.564 Y38.032
X40.530 Y37.710
X40.564 Y37.388
X40.664 Y37.080
X40.826 Y36.799
X41.043 Y36.558
X41.305 Y36.367
X41.601 Y36.236
X41.918 Y36.168
X42.242 Y36.168
X42.559 Y36.236
X42.855 Y36.367
X43.117 Y36.558
X43.334 Y36.799
X43.496 Y37.080
X43.596 Y37.388
X43.630 Y37.710
X43.596 Y38.032
X43.496 Y38.341
X43.334 Y38.621
X43.117 Y38.862
X42.855 Y39.053
X42.765 Y39.093
X42.765 Y39.517
X42.783 Y39.529
X42.930 Y39.693
X43.040 Y39.883
X43.107 Y40.092
X43.130 Y40.307
X43.130 Y41.313
X43.107 Y41.528
X43.040 Y41.737
X42.930 Y41.927
X42.783 Y42.090
X42.605 Y42.220
X42.405 Y42.309
X42.190 Y42.355
X41.970 Y42.355
G0  Z3.000
G0  X31.810 Y42.355
G0  Z0
G01 F50 Z-0.070
G01 F400 X31.595 Y42.309
X31.395 Y42.220
X31.217 Y42.090
X31.070 Y41.927
X30.961 Y41.737
X30.893 Y41.528
X30.870 Y41.313
X30.870 Y40.307
X30.893 Y40.092
X30.961 Y39.883
X31.070 Y39.693
X31.217 Y39.529
X31.235 Y39.517
X31.235 Y35.142
X23.228 Y35.142
X23.088 Y35.112
X22.957 Y35.053
X22.843 Y34.970
X22.569 Y34.696
X22.476 Y34.593
X22.404 Y34.469
X22.360 Y34.333
X22.345 Y34.193
X22.345 Y32.970
X21.480 Y32.970
X21.480 Y30.870
X24.580 Y30.870
X24.580 Y32.970
X23.715 Y32.970
X23.715 Y33.779
X31.992 Y33.779
X32.132 Y33.808
X32.263 Y33.867
X32.378 Y33.950
X32.686 Y34.259
X42.584 Y34.259
X42.665 Y34.177
X42.665 Y32.970
X41.800 Y32.970
X41.800 Y30.870
X44.900 Y30.870
X44.900 Y32.970
X44.035 Y32.970
X44.035 Y34.413
X63.946 Y34.413
X64.255 Y33.974
X64.255 Y32.970
X63.390 Y32.970
X63.390 Y30.870
X66.490 Y30.870
X66.490 Y32.970
X65.625 Y32.970
X65.625 Y34.193
X65.610 Y34.333
X65.566 Y34.469
X65.496 Y34.590
X64.858 Y35.499
X64.764 Y35.604
X64.648 Y35.689
X64.517 Y35.747
X64.377 Y35.776
X43.278 Y35.776
X43.138 Y35.747
X43.007 Y35.689
X42.915 Y35.622
X32.605 Y35.622
X32.605 Y39.517
X32.623 Y39.529
X32.770 Y39.693
X32.880 Y39.883
X32.947 Y40.092
X32.970 Y40.307
X32.970 Y41.313
X32.947 Y41.528
X32.880 Y41.737
X32.770 Y41.927
X32.623 Y42.090
X32.445 Y42.220
X32.245 Y42.309
X32.030 Y42.355
X31.810 Y42.355
G0  Z3.000
G0  X57.210 Y42.355
G0  Z0
G01 F50 Z-0.070
G01 F400 X56.995 Y42.309
X56.795 Y42.220
X56.617 Y42.090
X56.470 Y41.927
X56.361 Y41.737
X56.293 Y41.528
X56.270 Y41.313
X56.270 Y40.307
X56.293 Y40.092
X56.361 Y39.883
X56.470 Y39.693
X56.617 Y39.529
X56.795 Y39.400
X56.995 Y39.311
X57.210 Y39.266
X57.430 Y39.266
X57.645 Y39.311
X57.845 Y39.400
X58.023 Y39.529
X58.170 Y39.693
X58.280 Y39.883
X58.347 Y40.092
X58.370 Y40.307
X58.370 Y41.313
X58.347 Y41.528
X58.280 Y41.737
X58.170 Y41.927
X58.023 Y42.090
X57.845 Y42.220
X57.645 Y42.309
X57.430 Y42.355
X57.210 Y42.355
G0  Z3.000
G0  X54.670 Y42.355
G0  Z0
G01 F50 Z-0.070
G01 F400 X54.455 Y42.309
X54.255 Y42.220
X54.077 Y42.090
X53.930 Y41.927
X53.821 Y41.737
X53.753 Y41.528
X53.730 Y41.313
X53.730 Y40.307
X53.753 Y40.092
X53.821 Y39.883
X53.930 Y39.693
X54.077 Y39.529
X54.255 Y39.400
X54.455 Y39.311
X54.670 Y39.266
X54.890 Y39.266
X55.105 Y39.311
X55.305 Y39.400
X55.483 Y39.529
X55.630 Y39.693
X55.739 Y39.883
X55.807 Y40.092
X55.830 Y40.307
X55.830 Y41.313
X55.807 Y41.528
X55.739 Y41.737
X55.630 Y41.927
X55.483 Y42.090
X55.305 Y42.220
X55.105 Y42.309
X54.890 Y42.355
X54.670 Y42.355
G0  Z3.000
G0  X62.290 Y42.355
G0  Z0
G01 F50 Z-0.070
G01 F400 X62.075 Y42.309
X61.875 Y42.220
X61.697 Y42.090
X61.550 Y41.927
X61.441 Y41.737
X61.373 Y41.528
X61.350 Y41.313
X61.350 Y40.307
X61.373 Y40.092
X61.441 Y39.883
X61.550 Y39.693
X61.697 Y39.529
X61.875 Y39.400
X62.075 Y39.311
X62.290 Y39.266
X62.510 Y39.266
X62.725 Y39.311
X62.925 Y39.400
X63.103 Y39.529
X63.250 Y39.693
X63.360 Y39.883
X63.427 Y40.092
X63.450 Y40.307
X63.450 Y41.313
X63.427 Y41.528
X63.360 Y41.737
X63.250 Y41.927
X63.103 Y42.090
X62.925 Y42.220
X62.725 Y42.309
X62.510 Y42.355
X62.290 Y42.355
G0  Z3.000
G0  X59.750 Y42.355
G0  Z0
G01 F50 Z-0.070
G01 F400 X59.535 Y42.309
X59.335 Y42.220
X59.157 Y42.090
X59.010 Y41.927
X58.901 Y41.737
X58.833 Y41.528
X58.810 Y41.313
X58.810 Y40.307
X58.833 Y40.092
X58.901 Y39.883
X59.010 Y39.693
X59.157 Y39.529
X59.335 Y39.400
X59.535 Y39.311
X59.750 Y39.266
X59.970 Y39.266
X60.185 Y39.311
X60.385 Y39.400
X60.563 Y39.529
X60.710 Y39.693
X60.820 Y39.883
X60.887 Y40.092
X60.910 Y40.307
X60.910 Y41.313
X60.887 Y41.528
X60.820 Y41.737
X60.710 Y41.927
X60.563 Y42.090
X60.385 Y42.220
X60.185 Y42.309
X59.970 Y42.355
X59.750 Y42.355
G0  Z3.000
G0  X44.510 Y42.355
G0  Z0
G01 F50 Z-0.070
G01 F400 X44.295 Y42.309
X44.095 Y42.220
X43.917 Y42.090
X43.770 Y41.927
X43.660 Y41.737
X43.593 Y41.528
X43.570 Y41.313
X43.570 Y40.307
X43.593 Y40.092
X43.660 Y39.883
X43.770 Y39.693
X43.917 Y39.529
X44.095 Y39.400
X44.295 Y39.311
X44.510 Y39.266
X44.730 Y39.266
X44.945 Y39.311
X45.145 Y39.400
X45.323 Y39.529
X45.470 Y39.693
X45.580 Y39.883
X45.647 Y40.092
X45.670 Y40.307
X45.670 Y41.313
X45.647 Y41.528
X45.580 Y41.737
X45.470 Y41.927
X45.323 Y42.090
X45.145 Y42.220
X44.945 Y42.309
X44.730 Y42.355
X44.510 Y42.355
G0  Z3.000
G0  X52.130 Y42.355
G0  Z0
G01 F50 Z-0.070
G01 F400 X51.915 Y42.309
X51.715 Y42.220
X51.537 Y42.090
X51.390 Y41.927
X51.281 Y41.737
X51.213 Y41.528
X51.190 Y41.313
X51.190 Y40.307
X51.213 Y40.092
X51.281 Y39.883
X51.390 Y39.693
X51.537 Y39.529
X51.715 Y39.400
X51.915 Y39.311
X52.130 Y39.266
X52.350 Y39.266
X52.565 Y39.311
X52.765 Y39.400
X52.943 Y39.529
X53.090 Y39.693
X53.200 Y39.883
X53.267 Y40.092
X53.290 Y40.307
X53.290 Y41.313
X53.267 Y41.528
X53.200 Y41.737
X53.090 Y41.927
X52.943 Y42.090
X52.765 Y42.220
X52.565 Y42.309
X52.350 Y42.355
X52.130 Y42.355
G0  Z3.000
G0  X39.378 Y34.097
G0  Z0
G01 F50 Z-0.070
G01 F400 X39.061 Y34.029
X38.765 Y33.898
X38.503 Y33.707
X38.286 Y33.466
X38.124 Y33.186
X38.024 Y32.877
X37.990 Y32.555
X38.024 Y32.233
X38.079 Y32.062
X37.953 Y31.935
X37.458 Y32.430
X37.343 Y32.514
X37.212 Y32.572
X37.072 Y32.602
X32.200 Y32.602
X32.200 Y32.970
X29.100 Y32.970
X29.100 Y32.752
X29.054 Y32.831
X28.837 Y33.072
X28.575 Y33.263
X28.279 Y33.394
X27.962 Y33.462
X27.638 Y33.462
X27.321 Y33.394
X27.025 Y33.263
X26.763 Y33.072
X26.546 Y32.831
X26.384 Y32.551
X26.284 Y32.242
X26.250 Y31.920
X26.284 Y31.598
X26.384 Y31.289
X26.546 Y31.009
X26.763 Y30.768
X27.025 Y30.577
X27.321 Y30.446
X27.638 Y30.378
X27.962 Y30.378
X28.279 Y30.446
X28.575 Y30.577
X28.837 Y30.768
X29.054 Y31.009
X29.100 Y31.088
X29.100 Y30.870
X32.200 Y30.870
X32.200 Y31.239
X36.714 Y31.239
X38.079 Y29.873
X38.024 Y29.702
X37.990 Y29.380
X38.024 Y29.058
X38.124 Y28.749
X38.286 Y28.469
X38.503 Y28.228
X38.765 Y28.037
X39.061 Y27.906
X39.378 Y27.838
X39.702 Y27.838
X40.019 Y27.906
X40.315 Y28.037
X40.577 Y28.228
X40.794 Y28.469
X40.956 Y28.749
X41.056 Y29.058
X41.090 Y29.380
X41.056 Y29.702
X40.956 Y30.011
X40.794 Y30.291
X40.577 Y30.532
X40.315 Y30.723
X40.019 Y30.854
X39.702 Y30.922
X39.378 Y30.922
X39.061 Y30.854
X39.042 Y30.846
X38.920 Y30.968
X39.042 Y31.089
X39.061 Y31.081
X39.378 Y31.013
X39.702 Y31.013
X40.019 Y31.081
X40.315 Y31.212
X40.577 Y31.403
X40.794 Y31.644
X40.956 Y31.924
X41.056 Y32.233
X41.090 Y32.555
X41.056 Y32.877
X40.956 Y33.186
X40.794 Y33.466
X40.577 Y33.707
X40.315 Y33.898
X40.019 Y34.029
X39.702 Y34.097
X39.378 Y34.097
G0  Z3.000
G0  X44.602 Y34.001
G0  Z0
G01 F50 Z-0.070
G01 F400 X44.565 Y33.994
X44.531 Y33.979
X44.501 Y33.957
X44.477 Y33.929
X44.458 Y33.897
X44.447 Y33.862
X44.443 Y33.828
X44.443 Y33.556
X44.447 Y33.521
X44.458 Y33.486
X44.477 Y33.454
X44.501 Y33.426
X44.531 Y33.404
X44.565 Y33.389
X44.602 Y33.382
X44.834 Y33.382
X44.940 Y33.371
X45.026 Y33.345
X45.106 Y33.303
X45.176 Y33.245
X45.233 Y33.175
X45.276 Y33.095
X45.302 Y33.010
X45.311 Y32.917
X45.311 Y30.923
X45.302 Y30.831
X45.276 Y30.744
X45.264 Y30.721
X45.252 Y30.687
X45.248 Y30.650
X45.252 Y30.613
X45.264 Y30.578
X45.282 Y30.546
X45.307 Y30.518
X45.337 Y30.497
X45.371 Y30.481
X45.407 Y30.474
X46.478 Y30.474
X46.531 Y30.478
X46.569 Y30.474
X46.740 Y30.457
X46.793 Y30.441
X46.946 Y30.395
X47.136 Y30.293
X47.300 Y30.159
X47.327 Y30.127
X47.346 Y30.105
X48.530 Y28.921
X48.572 Y28.886
X48.709 Y28.720
X48.735 Y28.671
X48.810 Y28.530
X48.873 Y28.325
X48.893 Y28.103
X48.888 Y28.050
X48.888 Y20.378
X48.892 Y20.344
X48.903 Y20.309
X48.922 Y20.277
X48.944 Y20.252
X49.991 Y19.205
X50.020 Y19.184
X50.054 Y19.169
X50.090 Y19.161
X50.127 Y19.161
X50.163 Y19.169
X50.197 Y19.184
X50.227 Y19.206
X50.252 Y19.233
X50.271 Y19.265
X50.282 Y19.300
X50.285 Y19.332
X50.303 Y19.506
X50.386 Y19.780
X50.522 Y20.034
X50.703 Y20.256
X50.830 Y20.359
X50.854 Y20.386
X50.872 Y20.418
X50.884 Y20.453
X50.888 Y20.490
X50.884 Y20.527
X50.872 Y20.562
X50.854 Y20.594
X50.830 Y20.621
X50.703 Y20.725
X50.522 Y20.946
X50.386 Y21.200
X50.303 Y21.474
X50.274 Y21.760
X50.303 Y22.046
X50.386 Y22.320
X50.522 Y22.574
X50.703 Y22.796
X50.830 Y22.899
X50.854 Y22.926
X50.872 Y22.958
X50.884 Y22.993
X50.888 Y23.030
X50.884 Y23.067
X50.872 Y23.102
X50.854 Y23.134
X50.830 Y23.161
X50.703 Y23.265
X50.522 Y23.486
X50.386 Y23.740
X50.303 Y24.014
X50.274 Y24.300
X50.303 Y24.586
X50.386 Y24.860
X50.522 Y25.114
X50.703 Y25.335
X50.830 Y25.439
X50.854 Y25.466
X50.872 Y25.498
X50.884 Y25.533
X50.888 Y25.570
X50.884 Y25.607
X50.872 Y25.642
X50.854 Y25.674
X50.830 Y25.701
X50.703 Y25.805
X50.522 Y26.026
X50.386 Y26.280
X50.303 Y26.554
X50.274 Y26.840
X50.303 Y27.126
X50.386 Y27.400
X50.522 Y27.654
X50.703 Y27.876
X50.926 Y28.058
X51.179 Y28.194
X51.454 Y28.277
X51.676 Y28.299
X52.804 Y28.299
X53.026 Y28.277
X53.301 Y28.194
X53.554 Y28.058
X53.696 Y27.942
X53.723 Y27.922
X53.755 Y27.908
X53.931 Y27.855
X54.121 Y27.753
X54.287 Y27.616
X54.312 Y27.587
X54.331 Y27.565
X62.691 Y19.205
X62.720 Y19.184
X62.754 Y19.169
X62.790 Y19.161
X62.827 Y19.161
X62.863 Y19.169
X62.897 Y19.184
X62.927 Y19.206
X62.952 Y19.233
X62.971 Y19.265
X62.982 Y19.300
X62.985 Y19.332
X63.003 Y19.506
X63.086 Y19.780
X63.222 Y20.034
X63.403 Y20.256
X63.530 Y20.359
X63.554 Y20.386
X63.572 Y20.418
X63.584 Y20.453
X63.588 Y20.490
X63.584 Y20.527
X63.572 Y20.562
X63.554 Y20.594
X63.530 Y20.621
X63.403 Y20.725
X63.222 Y20.946
X63.086 Y21.200
X63.003 Y21.474
X62.974 Y21.760
X63.003 Y22.046
X63.086 Y22.320
X63.222 Y22.574
X63.403 Y22.796
X63.530 Y22.899
X63.554 Y22.926
X63.572 Y22.958
X63.584 Y22.993
X63.588 Y23.030
X63.584 Y23.067
X63.572 Y23.102
X63.554 Y23.134
X63.530 Y23.161
X63.403 Y23.265
X63.222 Y23.486
X63.086 Y23.740
X63.003 Y24.014
X62.974 Y24.300
X63.003 Y24.586
X63.086 Y24.860
X63.222 Y25.114
X63.403 Y25.335
X63.530 Y25.439
X63.554 Y25.466
X63.572 Y25.498
X63.584 Y25.533
X63.588 Y25.570
X63.584 Y25.607
X63.572 Y25.642
X63.554 Y25.674
X63.530 Y25.701
X63.403 Y25.805
X63.222 Y26.026
X63.086 Y26.280
X63.003 Y26.554
X62.974 Y26.840
X63.003 Y27.126
X63.086 Y27.400
X63.222 Y27.654
X63.403 Y27.876
X63.530 Y27.979
X63.554 Y28.006
X63.572 Y28.038
X63.584 Y28.073
X63.588 Y28.110
X63.584 Y28.147
X63.572 Y28.182
X63.554 Y28.214
X63.530 Y28.241
X63.404 Y28.344
X63.209 Y28.586
X63.186 Y28.611
X63.156 Y28.633
X63.123 Y28.648
X63.086 Y28.655
X63.049 Y28.655
X63.013 Y28.648
X62.979 Y28.633
X62.949 Y28.611
X62.924 Y28.583
X62.907 Y28.553
X62.865 Y28.452
X62.651 Y28.132
X62.378 Y27.859
X62.057 Y27.644
X61.701 Y27.497
X61.322 Y27.421
X60.938 Y27.421
X60.559 Y27.497
X60.203 Y27.644
X59.882 Y27.859
X59.609 Y28.132
X59.395 Y28.453
X59.247 Y28.809
X59.172 Y29.187
X59.172 Y29.573
X59.190 Y29.664
X59.194 Y29.698
X59.190 Y29.735
X59.178 Y29.770
X59.160 Y29.802
X59.138 Y29.826
X58.181 Y30.783
X58.153 Y30.804
X58.119 Y30.819
X58.083 Y30.826
X56.672 Y30.826
X56.609 Y30.854
X56.292 Y30.922
X55.968 Y30.922
X55.651 Y30.854
X55.588 Y30.826
X54.297 Y30.826
X54.261 Y30.819
X54.227 Y30.804
X54.197 Y30.782
X54.172 Y30.754
X54.156 Y30.726
X54.123 Y30.665
X54.066 Y30.595
X53.996 Y30.538
X53.916 Y30.495
X53.830 Y30.469
X53.724 Y30.458
X50.756 Y30.458
X50.650 Y30.469
X50.547 Y30.500
X50.514 Y30.507
X50.477 Y30.507
X50.440 Y30.499
X50.407 Y30.484
X50.378 Y30.463
X50.313 Y30.399
X49.992 Y30.184
X49.636 Y30.037
X49.257 Y29.961
X48.873 Y29.961
X48.495 Y30.037
X48.138 Y30.184
X47.817 Y30.399
X47.544 Y30.672
X47.330 Y30.992
X47.182 Y31.349
X47.107 Y31.727
X47.107 Y32.113
X47.182 Y32.491
X47.330 Y32.848
X47.544 Y33.168
X47.817 Y33.441
X48.148 Y33.660
X48.174 Y33.672
X48.204 Y33.693
X48.229 Y33.721
X48.247 Y33.753
X48.259 Y33.788
X48.262 Y33.825
X48.259 Y33.862
X48.247 Y33.897
X48.229 Y33.929
X48.204 Y33.957
X48.174 Y33.979
X48.140 Y33.994
X48.104 Y34.001
X44.602 Y34.001
G0  Z3.000
G0  X68.028 Y33.462
G0  Z0
G01 F50 Z-0.070
G01 F400 X67.711 Y33.394
X67.415 Y33.263
X67.153 Y33.072
X66.936 Y32.831
X66.774 Y32.551
X66.674 Y32.242
X66.640 Y31.920
X66.674 Y31.598
X66.774 Y31.289
X66.936 Y31.009
X67.153 Y30.768
X67.277 Y30.677
X67.078 Y30.532
X66.861 Y30.291
X66.728 Y30.062
X66.236 Y30.062
X66.221 Y30.083
X66.057 Y30.230
X65.867 Y30.340
X65.658 Y30.407
X65.443 Y30.430
X64.437 Y30.430
X64.222 Y30.407
X64.013 Y30.340
X63.823 Y30.230
X63.660 Y30.083
X63.530 Y29.905
X63.441 Y29.705
X63.396 Y29.490
X63.396 Y29.270
X63.441 Y29.055
X63.530 Y28.855
X63.660 Y28.677
X63.823 Y28.530
X64.013 Y28.421
X64.222 Y28.353
X64.437 Y28.330
X65.443 Y28.330
X65.658 Y28.353
X65.867 Y28.421
X66.057 Y28.530
X66.221 Y28.677
X66.236 Y28.699
X66.728 Y28.699
X66.861 Y28.469
X67.078 Y28.228
X67.340 Y28.037
X67.636 Y27.906
X67.953 Y27.838
X68.277 Y27.838
X68.594 Y27.906
X68.890 Y28.037
X69.152 Y28.228
X69.369 Y28.469
X69.531 Y28.749
X69.631 Y29.058
X69.665 Y29.380
X69.631 Y29.702
X69.531 Y30.011
X69.369 Y30.291
X69.152 Y30.532
X69.028 Y30.623
X69.227 Y30.768
X69.444 Y31.009
X69.606 Y31.289
X69.706 Y31.598
X69.740 Y31.920
X69.706 Y32.242
X69.606 Y32.551
X69.444 Y32.831
X69.227 Y33.072
X68.965 Y33.263
X68.669 Y33.394
X68.352 Y33.462
X68.028 Y33.462
G0  Z3.000
G0  X48.903 Y33.462
G0  Z0
G01 F50 Z-0.070
G01 F400 X48.586 Y33.394
X48.290 Y33.263
X48.028 Y33.072
X47.811 Y32.831
X47.649 Y32.551
X47.549 Y32.242
X47.515 Y31.920
X47.549 Y31.598
X47.649 Y31.289
X47.811 Y31.009
X48.028 Y30.768
X48.290 Y30.577
X48.586 Y30.446
X48.903 Y30.378
X49.227 Y30.378
X49.544 Y30.446
X49.840 Y30.577
X50.102 Y30.768
X50.319 Y31.009
X50.452 Y31.239
X50.690 Y31.239
X50.690 Y30.870
X53.790 Y30.870
X53.790 Y31.239
X58.304 Y31.239
X59.669 Y29.873
X59.614 Y29.702
X59.580 Y29.380
X59.614 Y29.058
X59.714 Y28.749
X59.876 Y28.469
X60.093 Y28.228
X60.355 Y28.037
X60.651 Y27.906
X60.968 Y27.838
X61.292 Y27.838
X61.609 Y27.906
X61.905 Y28.037
X62.167 Y28.228
X62.384 Y28.469
X62.546 Y28.749
X62.646 Y29.058
X62.680 Y29.380
X62.646 Y29.702
X62.546 Y30.011
X62.384 Y30.291
X62.167 Y30.532
X61.905 Y30.723
X61.609 Y30.854
X61.292 Y30.922
X60.968 Y30.922
X60.651 Y30.854
X60.632 Y30.846
X59.047 Y32.430
X58.933 Y32.514
X58.802 Y32.572
X58.662 Y32.602
X53.790 Y32.602
X53.790 Y32.970
X50.690 Y32.970
X50.690 Y32.602
X50.452 Y32.602
X50.319 Y32.831
X50.102 Y33.072
X49.840 Y33.263
X49.544 Y33.394
X49.227 Y33.462
X48.903 Y33.462
G0  Z3.000
G0  X34.378 Y30.922
G0  Z0
G01 F50 Z-0.070
G01 F400 X34.061 Y30.854
X33.998 Y30.826
X32.707 Y30.826
X32.671 Y30.819
X32.637 Y30.804
X32.607 Y30.782
X32.582 Y30.754
